;FLAVOR:Marlin
;TIME:868
;Filament used: 2.80332m
;Layer height: 0.32
;MINX:68.297
;MINY:83.003
;MINZ:0.32
;MAXX:153.401
;MAXY:136.996
;MAXZ:20.16
;Generated with Cura_SteamEngine main
M140 S60
M105
M190 S60
M104 S210
M105
M109 S210
M82 ;absolute extrusion mode
M201 X500.00 Y500.00 Z100.00 E5000.00 ;Setup machine max acceleration
M203 X500.00 Y500.00 Z10.00 E50.00 ;Setup machine max feedrate
M204 P500.00 R1000.00 T500.00 ;Setup Print/Retract/Travel acceleration
M205 X8.00 Y8.00 Z0.40 E5.00 ;Setup Jerk
M220 S100 ;Reset Feedrate
M221 S100 ;Reset Flowrate

G28 ;Home

G92 E0 ;Reset Extruder
G1 Z2.0 F3000 ;Move Z Axis up
G1 X10.1 Y20 Z0.28 F5000.0 ;Move to start position
G1 X10.1 Y200.0 Z0.28 F1500.0 E15 ;Draw the first line
G1 X10.4 Y200.0 Z0.28 F5000.0 ;Move to side a little
G1 X10.4 Y20 Z0.28 F1500.0 E30 ;Draw the second line
G92 E0 ;Reset Extruder
G1 Z2.0 F3000 ;Move Z Axis up

G92 E0
G92 E0
G1 F2700 E-5
;LAYER_COUNT:63
;LAYER:0
M107
G0 F6000 X73.705 Y110.237 Z0.32
G0 X68.297 Y120.437
;TYPE:SKIRT
G1 F2700 E0
G1 F1200 X68.345 Y119.438 E0.13306
G1 X68.472 Y118.447 E0.26598
G1 X68.678 Y117.468 E0.39908
G1 X68.961 Y116.51 E0.53198
G1 X69.32 Y115.576 E0.6651
G1 X69.753 Y114.675 E0.79809
G1 X70.256 Y113.811 E0.9311
G1 X70.827 Y112.99 E1.06415
G1 X71.461 Y112.218 E1.19705
G1 X72.156 Y111.498 E1.33019
G1 X72.905 Y110.836 E1.46318
G1 X73.705 Y110.237 E1.59614
G1 X74.55 Y109.703 E1.72912
G1 X75.436 Y109.238 E1.86225
G1 X76.355 Y108.846 E1.99517
G1 X77.303 Y108.528 E2.1282
G1 X78.274 Y108.287 E2.2613
G1 X79.012 Y108.158 E2.36097
G1 X80.486 Y107.952 E2.55898
G1 X82.933 Y107.57 E2.88847
G1 X85.371 Y107.118 E3.21835
G1 X87.794 Y106.598 E3.54805
G1 X90.154 Y106.022 E3.87124
G1 X92.573 Y105.357 E4.20501
G1 X94.939 Y104.635 E4.53411
G1 X97.299 Y103.84 E4.86542
G1 X99.592 Y102.996 E5.19049
G1 X101.908 Y102.068 E5.52243
G1 X104.168 Y101.087 E5.8502
G1 X106.422 Y100.032 E6.1813
G1 X108.628 Y98.923 E6.50979
G1 X110.823 Y97.739 E6.84159
G1 X112.952 Y96.513 E7.16844
G1 X115.042 Y95.228 E7.49484
G1 X117.136 Y93.86 E7.82761
G1 X119.17 Y92.445 E8.15725
G1 X121.14 Y90.991 E8.483
G1 X123.112 Y89.447 E8.81621
G1 X124.997 Y87.885 E9.1419
G1 X126.158 Y86.864 E9.34759
G1 X126.766 Y86.344 E9.45403
G1 X127.552 Y85.726 E9.58705
G1 X128.384 Y85.171 E9.72011
G1 X129.258 Y84.685 E9.85315
G1 X130.167 Y84.271 E9.98604
G1 X131.107 Y83.93 E10.11907
G1 X132.072 Y83.666 E10.25217
G1 X133.408 Y83.432 E10.43262
G1 X134.121 Y83.354 E10.52804
G1 X137.11 Y83.099 E10.92715
G1 X137.942 Y83.037 E11.03814
G1 X138.941 Y83.003 E11.17113
G1 X139.94 Y83.049 E11.30418
G1 X140.931 Y83.175 E11.43708
G1 X141.91 Y83.38 E11.57015
G1 X142.869 Y83.662 E11.70314
G1 X143.803 Y84.02 E11.83622
G1 X144.705 Y84.452 E11.96927
G1 X145.569 Y84.954 E12.10221
G1 X146.391 Y85.524 E12.23529
G1 X147.164 Y86.157 E12.36821
G1 X147.884 Y86.851 E12.50126
G1 X148.547 Y87.599 E12.63424
G1 X149.148 Y88.399 E12.76736
G1 X149.683 Y89.243 E12.9003
G1 X150.148 Y90.128 E13.0333
G1 X150.542 Y91.047 E13.16633
G1 X150.861 Y91.995 E13.2994
G1 X151.103 Y92.965 E13.43241
G1 X151.283 Y94.09 E13.58398
G1 X151.351 Y94.73 E13.66961
G1 X153.301 Y117.577 E16.72024
G1 X153.368 Y118.493 E16.84243
G1 X153.401 Y119.493 E16.97554
G1 X153.353 Y120.491 E17.10847
G1 X153.226 Y121.483 E17.24152
G1 X153.02 Y122.461 E17.37449
G1 X152.736 Y123.42 E17.50755
G1 X152.377 Y124.353 E17.64055
G1 X151.944 Y125.254 E17.77354
G1 X151.441 Y126.118 E17.90655
G1 X150.87 Y126.939 E18.0396
G1 X150.235 Y127.712 E18.17269
G1 X149.541 Y128.431 E18.30564
G1 X148.792 Y129.093 E18.43863
G1 X147.992 Y129.692 E18.57159
G1 X147.146 Y130.226 E18.70469
G1 X146.261 Y130.691 E18.83769
G1 X145.341 Y131.083 E18.97073
G1 X144.393 Y131.4 E19.10372
G1 X143.423 Y131.641 E19.23669
G1 X142.331 Y131.816 E19.38383
G1 X141.659 Y131.888 E19.47374
G1 X82.729 Y136.914 E27.34228
G1 X82.034 Y136.964 E27.43499
G1 X81.035 Y136.996 E27.56796
G1 X80.036 Y136.947 E27.70103
G1 X79.044 Y136.82 E27.83408
G1 X78.066 Y136.613 E27.96708
G1 X77.108 Y136.329 E28.10001
G1 X76.175 Y135.969 E28.23306
G1 X75.274 Y135.536 E28.36605
G1 X74.41 Y135.032 E28.49913
G1 X73.59 Y134.46 E28.63214
G1 X72.818 Y133.825 E28.76513
G1 X72.099 Y133.131 E28.89808
G1 X71.437 Y132.381 E29.03117
G1 X70.838 Y131.58 E29.16423
G1 X70.305 Y130.735 E29.29715
G1 X69.841 Y129.849 E29.43021
G1 X69.449 Y128.929 E29.56325
G1 X69.133 Y127.981 E29.6962
G1 X68.892 Y127.01 E29.8293
G1 X68.718 Y125.92 E29.97615
G1 X68.646 Y125.246 E30.06633
G1 X68.387 Y122.213 E30.47131
G1 X68.33 Y121.436 E30.57496
G1 X68.297 Y120.437 E30.70794
G0 F6000 X69.298 Y120.405
G1 F1200 X69.348 Y119.448 E30.83543
G1 X69.478 Y118.498 E30.963
G1 X69.687 Y117.562 E31.09059
G1 X69.973 Y116.646 E31.21826
G1 X70.334 Y115.758 E31.34579
G1 X70.768 Y114.903 E31.47335
G1 X71.272 Y114.087 E31.60095
G1 X71.841 Y113.316 E31.72844
G1 X72.474 Y112.595 E31.85608
G1 X73.164 Y111.929 E31.98367
G1 X73.907 Y111.323 E32.11122
G1 X74.698 Y110.781 E32.23879
G1 X75.531 Y110.306 E32.36637
G1 X76.402 Y109.903 E32.49405
G1 X77.302 Y109.574 E32.62153
G1 X78.227 Y109.321 E32.74912
G1 X79.154 Y109.148 E32.87458
G1 X80.634 Y108.941 E33.07339
G1 X83.088 Y108.558 E33.40383
G1 X85.587 Y108.095 E33.74195
G1 X87.989 Y107.579 E34.06881
G1 X90.414 Y106.988 E34.40087
G1 X92.846 Y106.319 E34.73645
G1 X95.266 Y105.58 E35.07308
G1 X97.605 Y104.793 E35.4014
G1 X99.962 Y103.925 E35.73557
G1 X102.289 Y102.992 E36.06911
G1 X104.601 Y101.989 E36.4044
G1 X106.849 Y100.937 E36.7346
G1 X109.104 Y99.803 E37.07041
G1 X111.281 Y98.629 E37.39947
G1 X113.47 Y97.368 E37.73556
G1 X115.582 Y96.069 E38.06543
G1 X117.682 Y94.697 E38.39916
G1 X119.763 Y93.25 E38.73637
G1 X121.756 Y91.779 E39.06592
G1 X123.712 Y90.248 E39.39638
G1 X125.662 Y88.632 E39.73332
G1 X126.808 Y87.624 E39.93637
G1 X127.416 Y87.104 E40.04281
G1 X128.17 Y86.512 E40.17034
G1 X128.971 Y85.985 E40.29791
G1 X129.813 Y85.526 E40.42549
G1 X130.691 Y85.139 E40.55314
G1 X131.597 Y84.826 E40.68067
G1 X132.527 Y84.59 E40.80832
G1 X133.527 Y84.425 E40.94316
G1 X134.206 Y84.351 E41.03403
G1 X137.325 Y84.085 E41.45049
G1 X138.015 Y84.034 E41.54253
G1 X138.974 Y84.004 E41.67018
G1 X139.931 Y84.053 E41.79767
G1 X140.882 Y84.182 E41.92535
G1 X141.818 Y84.389 E42.05288
G1 X142.734 Y84.674 E42.18051
G1 X143.622 Y85.034 E42.30799
G1 X144.478 Y85.467 E42.43561
G1 X145.295 Y85.97 E42.56326
G1 X146.067 Y86.539 E42.69085
G1 X146.788 Y87.17 E42.81832
G1 X147.455 Y87.859 E42.9459
G1 X148.062 Y88.602 E43.07354
G1 X148.605 Y89.392 E43.20107
G1 X149.08 Y90.225 E43.32865
G1 X149.485 Y91.095 E43.45632
G1 X149.815 Y91.995 E43.58385
G1 X150.069 Y92.92 E43.71147
G1 X150.289 Y94.203 E43.88465
G1 X150.354 Y94.815 E43.96653
G1 X152.316 Y117.808 E47.03665
G1 X152.371 Y118.566 E47.13776
G1 X152.4 Y119.524 E47.26527
G1 X152.35 Y120.482 E47.3929
G1 X152.22 Y121.432 E47.52046
G1 X152.011 Y122.368 E47.64806
G1 X151.725 Y123.283 E47.7756
G1 X151.363 Y124.172 E47.9033
G1 X150.929 Y125.027 E48.03086
G1 X150.426 Y125.843 E48.15839
G1 X149.856 Y126.614 E48.28596
G1 X149.223 Y127.335 E48.4136
G1 X148.533 Y128 E48.54109
G1 X147.79 Y128.606 E48.66865
G1 X146.999 Y129.148 E48.79622
G1 X146.165 Y129.622 E48.92384
G1 X145.295 Y130.025 E49.0514
G1 X144.394 Y130.355 E49.17906
G1 X143.469 Y130.608 E49.30664
G1 X142.216 Y130.823 E49.47578
G1 X141.574 Y130.891 E49.56167
G1 X82.657 Y135.916 E57.42848
G1 X81.962 Y135.966 E57.52118
G1 X81.004 Y135.995 E57.64869
G1 X80.046 Y135.944 E57.77632
G1 X79.096 Y135.813 E57.90391
G1 X78.16 Y135.604 E58.0315
G1 X77.245 Y135.317 E58.15908
G1 X76.357 Y134.956 E58.28661
G1 X75.502 Y134.521 E58.41423
G1 X74.687 Y134.017 E58.54172
G1 X73.916 Y133.446 E58.66936
G1 X73.195 Y132.813 E58.79701
G1 X72.53 Y132.123 E58.9245
G1 X71.924 Y131.379 E59.05216
G1 X71.383 Y130.588 E59.17965
G1 X70.909 Y129.754 E59.30728
G1 X70.507 Y128.883 E59.4349
G1 X70.178 Y127.983 E59.56239
G1 X69.926 Y127.057 E59.69006
G1 X69.712 Y125.806 E59.85892
G1 X69.643 Y125.16 E59.94535
G1 X69.372 Y121.983 E60.36955
G1 X69.327 Y121.364 E60.45212
G1 X69.298 Y120.405 E60.57977
G0 F6000 X70.298 Y120.375
G1 F1200 X70.352 Y119.461 E60.70158
G1 X70.485 Y118.554 E60.82354
G1 X70.696 Y117.663 E60.94535
G1 X70.985 Y116.793 E61.06732
G1 X71.348 Y115.952 E61.18918
G1 X71.783 Y115.145 E61.31115
G1 X72.287 Y114.38 E61.43303
G1 X72.855 Y113.661 E61.55493
G1 X73.484 Y112.995 E61.67681
G1 X74.169 Y112.386 E61.79875
G1 X74.904 Y111.839 E61.92064
G1 X75.684 Y111.359 E62.04249
G1 X76.504 Y110.948 E62.16452
G1 X77.355 Y110.61 E62.28634
G1 X78.233 Y110.348 E62.40824
G1 X79.297 Y110.138 E62.55252
G1 X80.773 Y109.932 E62.7508
G1 X83.284 Y109.539 E63.08893
G1 X85.736 Y109.085 E63.42069
G1 X88.246 Y108.546 E63.76223
G1 X90.649 Y107.96 E64.0913
G1 X93.152 Y107.271 E64.43668
G1 X95.529 Y106.546 E64.7673
G1 X97.954 Y105.73 E65.1077
G1 X100.351 Y104.847 E65.44755
G1 X102.653 Y103.925 E65.77746
G1 X105.02 Y102.897 E66.12078
G1 X107.289 Y101.835 E66.45408
G1 X109.538 Y100.704 E66.78899
G1 X111.766 Y99.503 E67.12573
G1 X114.005 Y98.213 E67.46951
G1 X116.107 Y96.921 E67.79777
G1 X118.246 Y95.523 E68.13773
G1 X120.334 Y94.072 E68.47601
G1 X122.355 Y92.58 E68.81021
G1 X124.373 Y91 E69.15119
G1 X126.308 Y89.396 E69.48557
G1 X127.458 Y88.384 E69.68937
G1 X128.066 Y87.864 E69.79581
G1 X128.788 Y87.3 E69.9177
G1 X129.556 Y86.8 E70.03962
G1 X130.365 Y86.37 E70.16151
G1 X131.208 Y86.011 E70.28341
G1 X132.079 Y85.727 E70.40529
G1 X132.972 Y85.521 E70.52722
G1 X133.646 Y85.418 E70.61793
G1 X134.291 Y85.347 E70.70426
G1 X137.28 Y85.092 E71.10336
G1 X138.089 Y85.032 E71.21128
G1 X139.005 Y85.004 E71.33321
G1 X139.92 Y85.056 E71.45513
G1 X140.826 Y85.188 E71.57694
G1 X141.718 Y85.399 E71.69889
G1 X142.588 Y85.686 E71.82077
G1 X143.43 Y86.048 E71.9427
G1 X144.237 Y86.482 E72.06461
G1 X145.003 Y86.985 E72.18653
G1 X145.722 Y87.553 E72.30843
G1 X146.389 Y88.181 E72.43031
G1 X146.999 Y88.865 E72.55224
G1 X147.546 Y89.6 E72.67413
G1 X148.028 Y90.379 E72.79601
G1 X148.44 Y91.198 E72.91798
G1 X148.779 Y92.049 E73.03985
G1 X149.042 Y92.927 E73.16178
G1 X149.228 Y93.824 E73.28366
G1 X149.296 Y94.316 E73.34974
G1 X149.358 Y94.9 E73.42787
G1 X151.308 Y117.747 E76.4785
G1 X151.373 Y118.638 E76.59735
G1 X151.4 Y119.554 E76.71927
G1 X151.346 Y120.469 E76.84121
G1 X151.213 Y121.375 E76.96304
G1 X151.001 Y122.267 E77.08502
G1 X150.713 Y123.137 E77.20694
G1 X150.35 Y123.978 E77.32881
G1 X149.914 Y124.784 E77.45072
G1 X149.41 Y125.549 E77.5726
G1 X148.842 Y126.268 E77.6945
G1 X148.213 Y126.934 E77.81638
G1 X147.528 Y127.543 E77.93832
G1 X146.792 Y128.089 E78.06024
G1 X146.012 Y128.57 E78.18216
G1 X145.193 Y128.981 E78.30407
G1 X144.341 Y129.318 E78.42596
G1 X143.463 Y129.581 E78.5479
G1 X142.566 Y129.765 E78.66972
G1 X142.102 Y129.829 E78.73204
G1 X141.489 Y129.895 E78.81406
G1 X82.585 Y134.919 E86.67913
G1 X81.89 Y134.969 E86.77184
G1 X80.975 Y134.995 E86.89362
G1 X80.06 Y134.941 E87.01556
G1 X79.153 Y134.807 E87.13754
G1 X78.262 Y134.595 E87.25939
G1 X77.392 Y134.306 E87.38135
G1 X76.551 Y133.942 E87.50327
G1 X75.745 Y133.506 E87.62518
G1 X74.98 Y133.002 E87.74706
G1 X74.262 Y132.433 E87.86894
G1 X73.597 Y131.803 E87.99081
G1 X72.988 Y131.118 E88.11275
G1 X72.442 Y130.382 E88.23467
G1 X71.962 Y129.602 E88.35652
G1 X71.552 Y128.782 E88.47849
G1 X71.215 Y127.93 E88.60039
G1 X70.953 Y127.052 E88.72229
G1 X70.769 Y126.154 E88.84424
G1 X70.705 Y125.692 E88.90629
G1 X70.639 Y125.075 E88.98884
G1 X70.38 Y122.042 E89.39383
G1 X70.325 Y121.291 E89.49401
G1 X70.298 Y120.375 E89.61592
G1 F2700 E84.61592
;MESH:karmnik_stojak_stepper.stl
G0 F6000 X80.213 Y121.587
G0 X82.496 Y122.884
;TYPE:WALL-INNER
G1 F2700 E89.61592
G1 F1201.2 X89.399 Y122.296 E90.53671
G1 X96.302 Y121.707 E91.4575
G1 X103.205 Y121.118 E92.3783
G1 X110.108 Y120.529 E93.29909
G1 X117.011 Y119.94 E94.21988
G1 X123.914 Y119.352 E95.14067
G1 X130.817 Y118.763 E96.06146
G1 F1192.8 X131.164 Y118.725 E96.10818
G1 F1184.6 X131.705 Y118.68 E96.18134
G1 F1185.8 X132.246 Y118.634 E96.25444
G1 F1186.9 X132.787 Y118.588 E96.32747
G1 F1188.1 X133.328 Y118.543 E96.40042
G1 F1189.3 X133.869 Y118.497 E96.4733
G1 F1190.5 X134.41 Y118.451 E96.54612
G1 F1191.7 X134.951 Y118.406 E96.61885
G1 X135.493 Y118.36 E96.69172
G1 F1192.8 X136.034 Y118.314 E96.76439
G1 F1194 X136.575 Y118.269 E96.83697
G1 F1195.2 X137.116 Y118.223 E96.9095
G1 F1196.4 X137.657 Y118.177 E96.98195
G1 F1197.6 X138.198 Y118.131 E97.05433
G1 F1198.8 X138.739 Y118.086 E97.12662
G1 F1200 X139.281 Y118.04 E97.19899
G1 X138.708 Y111.223 E98.10912
G1 F1197.6 X138.669 Y110.788 E98.16735
G1 F1191.7 X138.629 Y110.353 E98.22587
G1 F1185.8 X138.589 Y109.918 E98.28468
G1 F1190.5 X138.567 Y109.572 E98.33118
G1 F1200 X138.057 Y103.594 E99.12938
G1 X137.547 Y97.615 E99.92772
G1 X137.504 Y97.117 E99.99422
G1 X136.509 Y97.202 E100.12708
G1 X137.039 Y103.429 E100.95852
G1 X137.57 Y109.656 E101.78997
G1 F1190.5 X137.577 Y109.917 E101.82498
G1 F1186.9 X137.502 Y110.262 E101.87247
G1 F1196.4 X137.222 Y110.751 E101.94766
G1 F1200 X131.755 Y117.24 E103.07651
G1 F1196.4 X131.32 Y117.597 E103.1516
G1 F1188.1 X130.993 Y117.73 E103.19904
G1 F1192.8 X130.735 Y117.766 E103.2339
G1 F1201.2 X123.832 Y118.354 E104.15468
G1 X116.929 Y118.943 E105.07548
G1 X110.026 Y119.532 E105.99627
G1 X103.123 Y120.121 E106.91707
G1 X96.22 Y120.71 E107.83786
G1 X89.317 Y121.299 E108.75866
G1 X82.414 Y121.888 E109.67945
G1 F1200 X82.496 Y122.884 E109.81241
G0 F6000 X82.103 Y123.349
G0 X81.584 Y123.965
;TYPE:WALL-OUTER
G1 F1200 X140.37 Y118.951 E117.66172
G1 X138.543 Y97.529 E120.52206
G1 X138.416 Y96.035 E120.72154
G1 X135.427 Y96.29 E121.12065
G1 X136.579 Y109.803 E122.92494
G1 X136.458 Y110.107 E122.96847
G1 X130.99 Y116.595 E124.09731
G1 X130.71 Y116.766 E124.14096
G1 X81.329 Y120.977 E130.73447
G1 X81.584 Y123.965 E131.13344
G1 F2700 E126.13344
G0 F6000 X82.103 Y123.349
G0 X132.578 Y118.209
G1 F2700 E131.13344
G0 F6000 X132.537 Y117.711
;TYPE:SKIN
G1 F1200 X138.315 Y117.219 E131.90493
G1 X137.822 Y111.437 E132.67697
G1 X132.537 Y117.711 E133.76834
G0 F6000 X132.578 Y118.209
G0 X131.084 Y118.229
G0 X133.107 Y116.256
G0 X133.871 Y116.901
G1 F1200 X134.05 Y117.079 E133.80192
G0 F6000 X134.134 Y118.077
G0 X131.084 Y118.229
G0 X133.754 Y115.489
G0 X134.518 Y116.133
G1 F1200 X135.352 Y116.968 E133.95893
G0 F6000 X135.436 Y117.966
G0 X136.74 Y117.855
G0 X136.656 Y116.857
G1 F1200 X135.164 Y115.365 E134.23965
G0 F6000 X134.401 Y114.721
G0 X135.047 Y113.954
G0 X135.811 Y114.598
G1 F1200 X137.755 Y116.541 E134.60531
G0 F6000 X138.752 Y116.457
G0 X138.62 Y114.912
G0 X137.623 Y114.996
G1 F1200 X136.458 Y113.83 E134.8246
G0 F6000 X135.695 Y113.186
G0 X136.341 Y112.418
G0 X137.105 Y113.063
G1 F1200 X137.491 Y113.45 E134.89732
G1 F2700 E129.89732
;MESH:NONMESH
G0 F300 X137.491 Y113.45 Z0.64
G0 F6000 X138.488 Y113.366
G0 X138.085 Y109.922
G0 X131.124 Y117.267
G0 X82.496 Y122.884
;TIME_ELAPSED:60.771172
;LAYER:1
;TYPE:WALL-INNER
;MESH:karmnik_stojak_stepper.stl
G1 F2700 E134.89732
G1 F2233.9 X89.399 Y122.296 E135.8181
G1 X96.302 Y121.707 E136.7389
G1 X103.205 Y121.118 E137.65969
G1 X110.108 Y120.529 E138.58049
G1 X117.011 Y119.94 E139.50128
G1 X123.914 Y119.352 E140.42206
G1 X130.817 Y118.763 E141.34286
G1 F2218.3 X131.164 Y118.725 E141.38958
G1 F2203 X131.705 Y118.68 E141.46274
G1 F2205.2 X132.246 Y118.634 E141.53584
G1 F2207.4 X132.787 Y118.588 E141.60887
G1 F2209.5 X133.328 Y118.543 E141.68182
G1 F2211.7 X133.869 Y118.497 E141.7547
G1 F2213.9 X134.41 Y118.451 E141.82751
G1 F2216.1 X134.951 Y118.406 E141.90024
G1 X135.493 Y118.36 E141.97312
G1 F2218.3 X136.034 Y118.314 E142.04578
G1 F2220.5 X136.575 Y118.269 E142.11837
G1 F2222.7 X137.116 Y118.223 E142.19089
G1 F2225 X137.657 Y118.177 E142.26334
G1 F2227.2 X138.198 Y118.131 E142.33572
G1 F2229.4 X138.739 Y118.086 E142.40802
G1 F2231.6 X139.281 Y118.04 E142.48038
G1 X138.708 Y111.223 E143.39052
G1 F2227.2 X138.669 Y110.788 E143.44874
G1 F2216.1 X138.629 Y110.353 E143.50726
G1 F2205.2 X138.589 Y109.918 E143.56608
G1 F2213.9 X138.567 Y109.572 E143.61257
G1 F2231.6 X138.057 Y103.594 E144.41078
G1 X137.547 Y97.615 E145.20912
G1 X137.504 Y97.117 E145.27562
G1 X136.509 Y97.202 E145.40847
G1 X137.039 Y103.429 E146.23991
