;FLAVOR:Marlin
;TIME:1591
;Filament used: 3.56788m
;Layer height: 0.32
;MINX:75.301
;MINY:72.248
;MINZ:0.32
;MAXX:145.246
;MAXY:147.056
;MAXZ:28.16
;Generated with Cura_SteamEngine main
M140 S60
M105
M190 S60
M104 S210
M105
M109 S210
M82 ;absolute extrusion mode
M201 X500.00 Y500.00 Z100.00 E5000.00 ;Setup machine max acceleration
M203 X500.00 Y500.00 Z10.00 E50.00 ;Setup machine max feedrate
M204 P500.00 R1000.00 T500.00 ;Setup Print/Retract/Travel acceleration
M205 X8.00 Y8.00 Z0.40 E5.00 ;Setup Jerk
M220 S100 ;Reset Feedrate
M221 S100 ;Reset Flowrate

G28 ;Home

G92 E0 ;Reset Extruder
G1 Z2.0 F3000 ;Move Z Axis up
G1 X10.1 Y20 Z0.28 F5000.0 ;Move to start position
G1 X10.1 Y200.0 Z0.28 F1500.0 E15 ;Draw the first line
G1 X10.4 Y200.0 Z0.28 F5000.0 ;Move to side a little
G1 X10.4 Y20 Z0.28 F1500.0 E30 ;Draw the second line
G92 E0 ;Reset Extruder
G1 Z2.0 F3000 ;Move Z Axis up

G92 E0
G92 E0
G1 F2700 E-5
;LAYER_COUNT:88
;LAYER:0
M107
G0 F6000 X81.203 Y86.948 Z0.32
G0 X76.99 Y96.728
;TYPE:SKIRT
G1 F2700 E0
G1 F1200 X76.997 Y95.728 E0.13304
G1 X77.083 Y94.732 E0.26605
G1 X77.249 Y93.746 E0.39907
G1 X77.493 Y92.777 E0.53201
G1 X77.814 Y91.83 E0.66504
G1 X78.21 Y90.912 E0.79805
G1 X78.677 Y90.028 E0.93106
G1 X79.214 Y89.185 E1.06404
G1 X79.817 Y88.387 E1.1971
G1 X80.481 Y87.639 E1.33017
G1 X81.203 Y86.948 E1.46313
G1 X81.978 Y86.316 E1.59617
G1 X82.801 Y85.748 E1.72921
G1 X83.666 Y85.248 E1.86213
G1 X84.749 Y84.743 E2.02111
G1 X85.487 Y84.441 E2.1272
G1 X86.548 Y84.024 E2.27886
G1 X88.884 Y83.031 E2.61656
G1 X91.091 Y82.018 E2.93963
G1 X93.317 Y80.919 E3.26991
G1 X95.49 Y79.77 E3.59693
G1 X97.678 Y78.53 E3.93152
G1 X99.766 Y77.269 E4.25604
G1 X101.87 Y75.914 E4.58898
G1 X103.478 Y74.824 E4.84743
G1 X104.328 Y74.296 E4.98055
G1 X105.216 Y73.838 E5.11348
G1 X106.46 Y73.338 E5.29185
G1 X107.429 Y73.012 E5.42787
G1 X108.082 Y72.809 E5.51884
G1 X109.048 Y72.551 E5.65187
G1 X110.031 Y72.371 E5.78482
G1 X111.026 Y72.27 E5.91788
G1 X112.026 Y72.248 E6.05095
G1 X113.024 Y72.307 E6.18395
G1 X114.014 Y72.445 E6.31694
G1 X114.99 Y72.662 E6.44996
G1 X115.946 Y72.956 E6.58302
G1 X116.875 Y73.325 E6.71601
G1 X117.771 Y73.768 E6.84899
G1 X118.629 Y74.281 E6.98198
G1 X119.735 Y75.094 E7.1646
G1 X120.651 Y75.848 E7.32244
G1 X122.736 Y77.516 E7.67768
G1 X124.69 Y78.989 E8.00323
G1 X126.71 Y80.425 E8.33296
G1 X128.765 Y81.801 E8.66198
G1 X130.885 Y83.134 E8.99515
G1 X132.988 Y84.375 E9.32002
G1 X135.144 Y85.567 E9.64777
G1 X137.667 Y86.87 E10.02555
G1 X138.536 Y87.364 E10.15854
G1 X139.363 Y87.926 E10.29157
G1 X140.143 Y88.552 E10.42463
G1 X140.87 Y89.238 E10.55761
G1 X141.54 Y89.981 E10.69071
G1 X141.902 Y90.437 E10.76817
G1 X142.408 Y91.106 E10.87977
G1 X142.97 Y91.891 E11.00821
G1 X143.512 Y92.731 E11.14121
G1 X143.986 Y93.612 E11.2743
G1 X144.388 Y94.527 E11.40727
G1 X144.715 Y95.472 E11.5403
G1 X144.966 Y96.44 E11.67335
G1 X145.139 Y97.424 E11.80627
G1 X145.232 Y98.42 E11.93935
G1 X145.246 Y99.42 E12.0724
G1 X145.179 Y100.417 E12.20534
G1 X145.055 Y101.291 E12.32279
G1 X144.879 Y102.265 E12.45447
G1 X144.704 Y103.163 E12.57618
G1 X144.299 Y105.614 E12.90669
G1 X143.965 Y108.061 E13.23526
G1 X143.7 Y110.522 E13.56456
G1 X143.506 Y112.978 E13.89233
G1 X143.379 Y115.461 E14.2231
G1 X143.324 Y117.929 E14.55152
G1 X143.338 Y120.409 E14.88147
G1 X143.424 Y122.942 E15.21866
G1 X143.418 Y123.942 E15.3517
G1 X143.332 Y124.938 E15.4847
G1 X143.167 Y125.924 E15.6177
G1 X142.923 Y126.893 E15.75064
G1 X142.603 Y127.841 E15.88376
G1 X142.208 Y128.759 E16.01671
G1 X141.741 Y129.643 E16.14972
G1 X141.182 Y130.518 E16.28786
G1 X140.456 Y131.548 E16.45551
G1 X140.16 Y131.944 E16.52129
G1 X139.53 Y132.72 E16.65427
G1 X138.84 Y133.443 E16.78723
G1 X138.094 Y134.109 E16.92028
G1 X137.297 Y134.714 E17.0534
G1 X136.455 Y135.252 E17.18633
G1 X135.572 Y135.722 E17.31941
G1 X134.251 Y136.267 E17.50953
G1 X133.252 Y136.613 E17.65018
G1 X132.471 Y136.871 E17.75961
G1 X130.125 Y137.723 E18.09167
G1 X127.818 Y138.634 E18.42166
G1 X125.539 Y139.612 E18.7516
G1 X123.329 Y140.633 E19.07548
G1 X121.06 Y141.761 E19.41259
G1 X118.919 Y142.9 E19.73523
G1 X116.731 Y144.147 E20.07028
G1 X115.432 Y144.918 E20.27125
G1 X114.381 Y145.47 E20.42918
G1 X113.461 Y145.898 E20.56418
G1 X112.538 Y146.283 E20.69723
G1 X111.587 Y146.593 E20.8303
G1 X110.615 Y146.826 E20.96328
G1 X109.627 Y146.981 E21.09633
G1 X108.631 Y147.056 E21.22922
G1 X107.631 Y147.052 E21.36226
G1 X106.635 Y146.967 E21.49525
G1 X105.648 Y146.803 E21.62836
G1 X104.678 Y146.561 E21.76136
G1 X103.731 Y146.242 E21.89431
G1 X102.812 Y145.849 E22.02728
G1 X101.927 Y145.383 E22.16035
G1 X101.082 Y144.848 E22.29341
G1 X100.138 Y144.127 E22.45144
G1 X97.923 Y142.308 E22.83276
G1 X95.949 Y140.783 E23.16462
G1 X93.947 Y139.326 E23.49404
G1 X91.905 Y137.925 E23.8235
G1 X89.797 Y136.565 E24.15725
G1 X87.713 Y135.304 E24.48131
G1 X85.554 Y134.079 E24.81156
G1 X83.334 Y132.901 E25.14592
G1 X82.852 Y132.653 E25.21803
G1 X81.981 Y132.161 E25.35112
G1 X81.153 Y131.601 E25.4841
G1 X80.372 Y130.977 E25.6171
G1 X79.643 Y130.292 E25.75019
G1 X78.972 Y129.552 E25.88308
G1 X78.558 Y129.029 E25.97182
G1 X78.151 Y128.486 E26.06211
G1 X77.569 Y127.668 E26.19567
G1 X77.027 Y126.828 E26.32867
G1 X76.554 Y125.947 E26.4617
G1 X76.154 Y125.031 E26.59468
G1 X75.827 Y124.086 E26.72771
G1 X75.577 Y123.118 E26.86072
G1 X75.406 Y122.133 E26.99373
G1 X75.313 Y121.137 E27.12681
G1 X75.301 Y120.138 E27.25973
G1 X75.368 Y119.14 E27.3928
G1 X75.494 Y118.265 E27.51041
G1 X75.708 Y117.075 E27.67127
G1 X76.125 Y114.557 E28.01083
G1 X76.459 Y112.113 E28.339
G1 X76.728 Y109.632 E28.67101
G1 X76.923 Y107.172 E28.99932
G1 X77.049 Y104.701 E29.32849
G1 X77.105 Y102.224 E29.65811
G1 X77.092 Y99.78 E29.98327
G1 X77.03 Y98.22 E30.19098
G1 X77.03 Y97.929 E30.22969
G1 X76.99 Y96.728 E30.38956
G0 F6000 X77.989 Y96.695
G1 F1200 X77.997 Y95.736 E30.51715
G1 X78.085 Y94.781 E30.64474
G1 X78.253 Y93.837 E30.77231
G1 X78.498 Y92.91 E30.89987
G1 X78.819 Y92.006 E31.0275
G1 X79.215 Y91.133 E31.15503
G1 X79.682 Y90.295 E31.28266
G1 X80.218 Y89.5 E31.41022
G1 X80.818 Y88.752 E31.5378
G1 X81.478 Y88.056 E31.66541
G1 X82.193 Y87.418 E31.79289
G1 X82.96 Y86.841 E31.92059
G1 X83.771 Y86.331 E32.04804
G1 X84.623 Y85.889 E32.17574
G1 X85.128 Y85.669 E32.24902
G1 X86.018 Y85.305 E32.37695
G1 X86.977 Y84.929 E32.51399
G1 X89.238 Y83.968 E32.84084
G1 X91.532 Y82.915 E33.17665
G1 X93.795 Y81.798 E33.5124
G1 X95.989 Y80.637 E33.84264
G1 X98.141 Y79.418 E34.17169
G1 X100.325 Y78.099 E34.51113
G1 X102.429 Y76.745 E34.844
G1 X104.04 Y75.652 E35.103
G1 X104.855 Y75.147 E35.23055
G1 X105.71 Y74.712 E35.35818
G1 X106.783 Y74.285 E35.51182
G1 X107.726 Y73.967 E35.64422
G1 X108.379 Y73.764 E35.73519
G1 X109.306 Y73.518 E35.86279
G1 X110.25 Y73.35 E35.99036
G1 X111.205 Y73.261 E36.11796
G1 X112.164 Y73.252 E36.24555
G1 X113.12 Y73.323 E36.37309
G1 X114.067 Y73.473 E36.50065
G1 X114.998 Y73.702 E36.6282
G1 X115.908 Y74.007 E36.75589
G1 X116.788 Y74.387 E36.88341
G1 X117.634 Y74.84 E37.01108
G1 X118.439 Y75.361 E37.13865
G1 X119.1 Y75.866 E37.24932
G1 X120.071 Y76.665 E37.41662
G1 X122.104 Y78.291 E37.76296
G1 X124.12 Y79.811 E38.09886
G1 X126.128 Y81.239 E38.42667
G1 X128.247 Y82.657 E38.76588
G1 X130.333 Y83.969 E39.09373
G1 X132.495 Y85.245 E39.42772
G1 X134.705 Y86.467 E39.7637
G1 X137.208 Y87.759 E40.13844
G1 X138.041 Y88.234 E40.26602
G1 X138.832 Y88.777 E40.39366
G1 X139.574 Y89.384 E40.5212
G1 X140.264 Y90.05 E40.64879
G1 X141.104 Y91.04 E40.82152
G1 X141.61 Y91.709 E40.93311
G1 X142.152 Y92.467 E41.05709
G1 X142.671 Y93.274 E41.18474
G1 X143.121 Y94.12 E41.31222
G1 X143.499 Y95.002 E41.43989
G1 X143.802 Y95.911 E41.56736
G1 X144.029 Y96.843 E41.69498
G1 X144.176 Y97.791 E41.82261
G1 X144.245 Y98.747 E41.95013
G1 X144.233 Y99.706 E42.07772
G1 X144.07 Y101.115 E42.26643
G1 X143.897 Y102.074 E42.39607
G1 X143.72 Y102.985 E42.51954
G1 X143.311 Y105.461 E42.85341
G1 X142.974 Y107.925 E43.18428
G1 X142.703 Y110.438 E43.52054
G1 X142.507 Y112.919 E43.85165
G1 X142.379 Y115.422 E44.18508
G1 X142.324 Y117.913 E44.51657
G1 X142.338 Y120.448 E44.85383
G1 X142.424 Y122.976 E45.19035
G1 X142.417 Y123.935 E45.31794
G1 X142.33 Y124.89 E45.44552
G1 X142.163 Y125.834 E45.57306
G1 X141.918 Y126.761 E45.70062
G1 X141.597 Y127.665 E45.82825
G1 X141.202 Y128.539 E45.95585
G1 X140.735 Y129.376 E46.08337
G1 X140.362 Y129.946 E46.17399
G1 X139.875 Y130.644 E46.28722
G1 X139.359 Y131.345 E46.40303
G1 X138.753 Y132.089 E46.53069
G1 X138.088 Y132.779 E46.65818
G1 X137.367 Y133.412 E46.78582
G1 X136.596 Y133.982 E46.91339
G1 X135.781 Y134.486 E47.04087
G1 X134.926 Y134.921 E47.1685
G1 X133.923 Y135.323 E47.31226
G1 X132.938 Y135.664 E47.45093
G1 X132.121 Y135.934 E47.56541
G1 X129.774 Y136.786 E47.89759
G1 X127.446 Y137.706 E48.23062
G1 X125.144 Y138.693 E48.56384
G1 X122.868 Y139.744 E48.89737
G1 X120.634 Y140.855 E49.2293
G1 X118.416 Y142.036 E49.56361
G1 X116.238 Y143.277 E49.89711
G1 X114.926 Y144.056 E50.10011
G1 X113.959 Y144.563 E50.24537
G1 X113.039 Y144.991 E50.38036
G1 X112.153 Y145.359 E50.508
G1 X111.24 Y145.652 E50.63557
G1 X110.306 Y145.867 E50.76308
G1 X109.357 Y146.004 E50.89064
G1 X108.399 Y146.062 E51.01833
G1 X107.441 Y146.04 E51.14581
G1 X106.487 Y145.938 E51.27346
G1 X105.545 Y145.756 E51.4011
G1 X104.622 Y145.497 E51.52864
G1 X103.724 Y145.162 E51.65615
G1 X102.856 Y144.753 E51.78381
G1 X102.026 Y144.274 E51.9113
G1 X101.238 Y143.726 E52.039
G1 X100.782 Y143.362 E52.11662
G1 X98.512 Y141.499 E52.50731
G1 X96.554 Y139.987 E52.83643
G1 X94.514 Y138.501 E53.1722
G1 X92.458 Y137.092 E53.5038
G1 X90.367 Y135.743 E53.83486
G1 X88.205 Y134.434 E54.17111
G1 X86.028 Y133.199 E54.5041
G1 X83.785 Y132.008 E54.84196
G1 X83.308 Y131.763 E54.91331
G1 X82.474 Y131.29 E55.04086
G1 X81.682 Y130.749 E55.16847
G1 X80.938 Y130.144 E55.29605
G1 X80.247 Y129.479 E55.42363
G1 X79.358 Y128.429 E55.60667
G1 X78.744 Y127.601 E55.74381
G1 X78.387 Y127.093 E55.82641
G1 X77.869 Y126.286 E55.95399
G1 X77.42 Y125.439 E56.08153
G1 X77.043 Y124.557 E56.20914
G1 X76.74 Y123.647 E56.33675
G1 X76.515 Y122.715 E56.4643
G1 X76.368 Y121.767 E56.59193
G1 X76.301 Y120.811 E56.71943
G1 X76.313 Y119.852 E56.84703
G1 X76.478 Y118.442 E57.03589
G1 X76.688 Y117.274 E57.19378
G1 X77.118 Y114.679 E57.54372
G1 X77.455 Y112.21 E57.87525
G1 X77.721 Y109.751 E58.2043
G1 X77.922 Y107.231 E58.54063
G1 X78.049 Y104.739 E58.8726
G1 X78.105 Y102.241 E59.20502
G1 X78.092 Y99.764 E59.53456
G1 X78.029 Y98.181 E59.74533
G1 X78.03 Y97.913 E59.78099
G1 X77.989 Y96.695 E59.94312
G0 F6000 X78.989 Y96.662
G1 F1200 X78.998 Y95.745 E60.06513
G1 X79.088 Y94.833 E60.18705
G1 X79.256 Y93.933 E60.30885
G1 X79.503 Y93.05 E60.43084
G1 X79.825 Y92.192 E60.55276
G1 X80.221 Y91.366 E60.67463
G1 X80.687 Y90.577 E60.79654
G1 X81.221 Y89.832 E60.91848
G1 X81.817 Y89.137 E61.04029
G1 X82.472 Y88.496 E61.16222
G1 X83.18 Y87.914 E61.28415
G1 X83.936 Y87.397 E61.406
G1 X84.735 Y86.947 E61.528
G1 X85.506 Y86.594 E61.64081
G1 X86.244 Y86.292 E61.7469
G1 X87.331 Y85.864 E61.90232
G1 X89.657 Y84.876 E62.23853
G1 X91.973 Y83.813 E62.57756
G1 X94.216 Y82.706 E62.91033
G1 X96.488 Y81.504 E63.2523
G1 X98.647 Y80.28 E63.58248
G1 X100.829 Y78.963 E63.92155
G1 X102.986 Y77.574 E64.26287
G1 X104.601 Y76.479 E64.52246
G1 X105.381 Y75.998 E64.64438
G1 X106.2 Y75.588 E64.76623
G1 X107.105 Y75.231 E64.89566
G1 X108.023 Y74.922 E65.02453
G1 X108.676 Y74.719 E65.1155
G1 X109.562 Y74.486 E65.23738
G1 X110.465 Y74.33 E65.3593
G1 X111.378 Y74.254 E65.48119
G1 X112.294 Y74.258 E65.60305
G1 X113.207 Y74.342 E65.72503
G1 X114.109 Y74.505 E65.84698
G1 X114.993 Y74.745 E65.96884
G1 X115.852 Y75.062 E66.09066
G1 X116.681 Y75.453 E66.2126
G1 X117.473 Y75.915 E66.33459
G1 X118.465 Y76.638 E66.49789
G1 X119.479 Y77.473 E66.67265
G1 X121.493 Y79.083 E67.01569
G1 X123.51 Y80.604 E67.35177
G1 X125.564 Y82.064 E67.68704
G1 X127.689 Y83.486 E68.02721
G1 X129.823 Y84.829 E68.36266
G1 X132.007 Y86.117 E68.69999
G1 X134.224 Y87.343 E69.03703
G1 X136.749 Y88.647 E69.41511
G1 X137.544 Y89.103 E69.53704
G1 X138.297 Y89.626 E69.65902
G1 X139.001 Y90.213 E69.78096
G1 X139.651 Y90.858 E69.90279
G1 X140.306 Y91.643 E70.03881
G1 X141.023 Y92.6 E70.1979
G1 X141.335 Y93.043 E70.26998
G1 X141.829 Y93.814 E70.39181
G1 X142.254 Y94.626 E70.51374
G1 X142.607 Y95.472 E70.6357
G1 X142.885 Y96.345 E70.75759
G1 X143.086 Y97.239 E70.87949
G1 X143.208 Y98.147 E71.00138
G1 X143.25 Y99.062 E71.12324
G1 X143.212 Y99.978 E71.24521
G1 X143.086 Y100.938 E71.37403
G1 X142.916 Y101.883 E71.50177
G1 X142.736 Y102.806 E71.62688
G1 X142.318 Y105.339 E71.96843
G1 X141.983 Y107.789 E72.29741
G1 X141.706 Y110.359 E72.6413
G1 X141.508 Y112.859 E72.97495
G1 X141.38 Y115.385 E73.31144
G1 X141.324 Y117.896 E73.64559
G1 X141.338 Y120.453 E73.98578
G1 X141.425 Y123.01 E74.32616
G1 X141.416 Y123.926 E74.44803
G1 X141.327 Y124.838 E74.56994
G1 X141.159 Y125.739 E74.69187
G1 X140.914 Y126.621 E74.81366
G1 X140.592 Y127.479 E74.93558
G1 X140.196 Y128.306 E75.05757
G1 X139.542 Y129.374 E75.22418
G1 X139.055 Y130.072 E75.33741
G1 X138.558 Y130.746 E75.44882
G1 X137.978 Y131.456 E75.57079
G1 X137.338 Y132.112 E75.69272
G1 X136.644 Y132.709 E75.81451
G1 X135.9 Y133.244 E75.93643
G1 X135.112 Y133.712 E76.05836
G1 X134.287 Y134.11 E76.18022
G1 X133.595 Y134.378 E76.27895
G1 X132.772 Y134.664 E76.39487
G1 X131.813 Y134.982 E76.52928
G1 X129.425 Y135.849 E76.86727
G1 X127.062 Y136.783 E77.20532
G1 X124.734 Y137.781 E77.54229
G1 X122.437 Y138.842 E77.87891
G1 X120.166 Y139.971 E78.21633
G1 X117.924 Y141.165 E78.55426
G1 X115.733 Y142.413 E78.88973
G1 X115.189 Y142.742 E78.97431
G1 X114.42 Y143.193 E79.09291
G1 X113.537 Y143.656 E79.22556
G1 X112.617 Y144.084 E79.36055
G1 X111.77 Y144.434 E79.48248
G1 X110.896 Y144.709 E79.60438
G1 X110.001 Y144.906 E79.7263
G1 X109.093 Y145.025 E79.84813
G1 X108.177 Y145.064 E79.97011
G1 X107.262 Y145.023 E80.09196
G1 X106.353 Y144.902 E80.21396
G1 X105.459 Y144.703 E80.33581
G1 X104.585 Y144.427 E80.45775
G1 X103.739 Y144.075 E80.57965
G1 X102.927 Y143.651 E80.70152
G1 X102.155 Y143.158 E80.82339
G1 X101.426 Y142.597 E80.94577
G1 X99.128 Y140.711 E81.34128
G1 X97.161 Y139.191 E81.672
G1 X95.09 Y137.683 E82.01283
G1 X93.019 Y136.264 E82.34682
G1 X90.872 Y134.879 E82.68674
G1 X88.728 Y133.581 E83.02018
G1 X86.514 Y132.325 E83.35883
G1 X84.206 Y131.1 E83.70645
G1 X83.765 Y130.873 E83.77244
G1 X82.969 Y130.42 E83.89429
G1 X82.215 Y129.898 E84.0163
G1 X81.51 Y129.313 E84.13818
G1 X80.859 Y128.669 E84.26
G1 X80.158 Y127.83 E84.40546
G1 X79.751 Y127.287 E84.49574
G1 X79.205 Y126.518 E84.62121
G1 X78.712 Y125.746 E84.74308
G1 X78.287 Y124.934 E84.86501
G1 X77.935 Y124.088 E84.98691
G1 X77.658 Y123.215 E85.10876
G1 X77.458 Y122.321 E85.23064
G1 X77.337 Y121.412 E85.35264
G1 X77.296 Y120.497 E85.4745
G1 X77.335 Y119.581 E85.59647
G1 X77.462 Y118.619 E85.72557
G1 X77.683 Y117.393 E85.8913
G1 X78.105 Y114.842 E86.2353
G1 X78.446 Y112.346 E86.57046
G1 X78.719 Y109.828 E86.90742
G1 X78.92 Y107.292 E87.24586
G1 X79.048 Y104.777 E87.58089
G1 X79.105 Y102.259 E87.91598
G1 X79.092 Y99.748 E88.25005
G1 X79.028 Y98.141 E88.46401
G1 X79.029 Y97.869 E88.5002
G1 X78.989 Y96.662 E88.66087
G1 F2700 E83.66087
G0 F6000 X89.121 Y96.87
G0 X90.23 Y97.228
;TYPE:SUPPORT-INTERFACE
G1 F2700 E88.66087
G1 F1200 X90.336 Y96.9 E88.70673
G1 X90.614 Y96.698 E88.75244
G1 X90.957 Y96.698 E88.79808
G1 X91.441 Y97.049 E88.87762
G1 X92.029 Y96.621 E88.97438
G1 X92.339 Y96.621 E89.01562
G1 X92.589 Y96.803 E89.05676
G1 X92.685 Y97.098 E89.09803
G1 X92.589 Y97.393 E89.1393
G1 X92.339 Y97.575 E89.18044
G1 X91.699 Y97.575 E89.26559
G1 X91.994 Y98.484 E89.39273
G1 X91.898 Y98.78 E89.43413
G1 X91.648 Y98.962 E89.47527
G1 X91.338 Y98.962 E89.51652
G1 X91.088 Y98.78 E89.55766
G1 X90.993 Y98.484 E89.59901
G1 X91.226 Y97.758 E89.70045
G1 X90.614 Y97.758 E89.78188
G1 X90.336 Y97.556 E89.82759
G1 X90.23 Y97.228 E89.87345
G1 F2700 E84.87345
G0 F6000 X90.237 Y95.535
G0 X109.48 Y87.972
G0 X110.588 Y87.613
G1 F2700 E89.87345
G1 F1200 X110.688 Y87.302 E89.91691
G1 X111.125 Y86.984 E89.98882
G1 X110.92 Y86.348 E90.07772
G1 X111.026 Y86.02 E90.12358
