;FLAVOR:Marlin
;TIME:6053
;Filament used: 20.1836m
;Layer height: 0.32
;MINX:57.925
;MINY:51.753
;MINZ:0.32
;MAXX:162.075
;MAXY:167.798
;MAXZ:100.16
;Generated with Cura_SteamEngine main
M140 S60
M105
M190 S60
M104 S210
M105
M109 S210
M82 ;absolute extrusion mode
M201 X500.00 Y500.00 Z100.00 E5000.00 ;Setup machine max acceleration
M203 X500.00 Y500.00 Z10.00 E50.00 ;Setup machine max feedrate
M204 P500.00 R1000.00 T500.00 ;Setup Print/Retract/Travel acceleration
M205 X8.00 Y8.00 Z0.40 E5.00 ;Setup Jerk
M220 S100 ;Reset Feedrate
M221 S100 ;Reset Flowrate

G28 ;Home

G92 E0 ;Reset Extruder
G1 Z2.0 F3000 ;Move Z Axis up
G1 X10.1 Y20 Z0.28 F5000.0 ;Move to start position
G1 X10.1 Y200.0 Z0.28 F1500.0 E15 ;Draw the first line
G1 X10.4 Y200.0 Z0.28 F5000.0 ;Move to side a little
G1 X10.4 Y20 Z0.28 F1500.0 E30 ;Draw the second line
G92 E0 ;Reset Extruder
G1 Z2.0 F3000 ;Move Z Axis up

G92 E0
G92 E0
G1 F2700 E-5
;LAYER_COUNT:313
;LAYER:0
M107
G0 F6000 X74.461 Y59.129 Z0.32
G0 X71.825 Y63.95
;TYPE:SKIRT
G1 F2700 E0
G1 F1200 X72.182 Y62.989 E0.13639
G1 X72.567 Y62.067 E0.26932
G1 X73.025 Y61.178 E0.40236
G1 X73.552 Y60.328 E0.53542
G1 X74.068 Y59.621 E0.65187
G1 X74.461 Y59.129 E0.73564
G1 X74.988 Y58.498 E0.84502
G1 X75.659 Y57.757 E0.97801
G1 X76.387 Y57.072 E1.111
G1 X77.053 Y56.533 E1.22499
G1 X77.432 Y56.247 E1.28815
G1 X77.959 Y55.868 E1.37452
G1 X78.8 Y55.327 E1.50755
G1 X79.681 Y54.856 E1.64046
G1 X80.598 Y54.456 E1.77356
G1 X81.758 Y54.068 E1.93629
G1 X82.925 Y53.741 E2.09753
G1 X85.393 Y53.011 E2.43994
G1 X86.588 Y52.619 E2.60725
G1 X87.512 Y52.329 E2.7361
G1 X88.477 Y52.069 E2.86906
G1 X89.46 Y51.887 E3.00206
G1 X90.455 Y51.784 E3.13514
G1 X91.131 Y51.759 E3.22514
G1 X91.809 Y51.753 E3.31535
G1 X93.195 Y51.818 E3.49994
G1 X94.463 Y51.948 E3.66952
G1 X96.975 Y52.168 E4.005
G1 X99.442 Y52.314 E4.33378
G1 X101.925 Y52.391 E4.66428
G1 X104.399 Y52.398 E4.99343
G1 X106.87 Y52.335 E5.32228
G1 X109.347 Y52.204 E5.65228
G1 X110.615 Y52.202 E5.82097
G1 X111.334 Y52.243 E5.91679
G1 X116.643 Y52.662 E6.62529
G1 X117.367 Y52.73 E6.72204
G1 X118.766 Y52.942 E6.91029
G1 X119.458 Y53.092 E7.00449
G1 X124.637 Y54.336 E7.7131
G1 X125.35 Y54.519 E7.81104
G1 X126.681 Y54.942 E7.99684
G1 X127.301 Y55.183 E8.08534
G1 X132.297 Y57.252 E8.80475
G1 X132.935 Y57.528 E8.89723
G1 X134.242 Y58.187 E9.09197
G1 X134.913 Y58.581 E9.19549
G1 X139.321 Y61.285 E9.88348
G1 X139.955 Y61.686 E9.98329
G1 X141.092 Y62.497 E10.16909
G1 X141.627 Y62.934 E10.26099
G1 X145.716 Y66.427 E10.97646
G1 X146.242 Y66.889 E11.0696
G1 X147.27 Y67.904 E11.2618
G1 X147.74 Y68.431 E11.35574
G1 X151.185 Y72.466 E12.0616
G1 X151.649 Y73.025 E12.15825
G1 X152.512 Y74.198 E12.35199
G1 X152.895 Y74.794 E12.44625
G1 X155.66 Y79.308 E13.1505
G1 X156.028 Y79.929 E13.24654
G1 X156.67 Y81.166 E13.43195
G1 X156.959 Y81.822 E13.52732
G1 X158.937 Y86.597 E14.21494
G1 X159.261 Y87.406 E14.33088
G1 X159.595 Y88.348 E14.46385
G1 X159.733 Y88.829 E14.53042
G1 X159.908 Y89.501 E14.6228
G1 X161.105 Y94.489 E15.30525
G1 X161.296 Y95.333 E15.42038
G1 X161.537 Y96.81 E15.61948
G1 X161.612 Y97.579 E15.72227
G1 X162.003 Y102.554 E16.38619
G1 X162.063 Y103.462 E16.50725
G1 X162.075 Y104.888 E16.69697
G1 X162.034 Y105.725 E16.80846
G1 X161.947 Y108.239 E17.14313
G1 X161.932 Y110.741 E17.476
G1 X161.988 Y113.247 E17.80948
G1 X162.073 Y115.059 E18.05082
G1 X162.065 Y116.393 E18.2283
G1 X161.988 Y117.642 E18.39478
G1 X161.631 Y122.186 E19.00118
G1 X161.549 Y123.073 E19.11969
G1 X161.341 Y124.464 E19.30681
G1 X161.201 Y125.108 E19.39449
G1 X159.952 Y130.309 E20.1061
G1 X159.765 Y131.043 E20.20687
G1 X159.338 Y132.395 E20.3955
G1 X159.081 Y133.054 E20.48961
G1 X157.029 Y138.008 E21.20299
G1 X156.753 Y138.648 E21.29572
G1 X156.321 Y139.549 E21.42865
G1 X156.075 Y139.991 E21.49595
G1 X155.695 Y140.637 E21.59566
G1 X152.991 Y145.045 E22.28365
G1 X152.59 Y145.679 E22.38346
G1 X151.779 Y146.816 E22.56926
G1 X151.342 Y147.351 E22.66116
G1 X147.851 Y151.438 E23.37626
G1 X147.391 Y151.962 E23.46902
G1 X146.378 Y152.989 E23.66094
G1 X145.845 Y153.464 E23.75592
G1 X141.81 Y156.909 E24.46178
G1 X141.251 Y157.373 E24.55843
G1 X140.078 Y158.236 E24.75217
G1 X139.48 Y158.62 E24.84672
G1 X135.109 Y161.298 E25.5287
G1 X134.362 Y161.743 E25.64438
G1 X133.097 Y162.401 E25.83409
G1 X132.454 Y162.683 E25.9275
G1 X127.679 Y164.661 E26.61511
G1 X126.87 Y164.985 E26.73105
G1 X125.928 Y165.319 E26.86402
G1 X125.447 Y165.457 E26.9306
G1 X124.775 Y165.632 E27.02298
G1 X119.629 Y166.866 E27.72702
G1 X118.945 Y167.02 E27.82029
G1 X117.548 Y167.252 E28.0087
G1 X116.879 Y167.319 E28.09815
G1 X111.548 Y167.739 E28.80958
G1 X110.804 Y167.787 E28.90877
G1 X109.396 Y167.798 E29.0961
G1 X108.666 Y167.757 E29.19337
G1 X103.361 Y167.339 E29.90134
G1 X102.645 Y167.272 E29.99701
G1 X101.265 Y167.064 E30.18268
G1 X100.542 Y166.908 E30.28108
G1 X95.363 Y165.664 E30.9897
G1 X94.65 Y165.481 E31.08763
G1 X93.326 Y165.061 E31.27243
G1 X92.567 Y164.76 E31.38105
G1 X92.05 Y164.537 E31.45596
G1 X90.738 Y163.877 E31.65135
G1 X89.597 Y163.216 E31.82679
G1 X87.402 Y161.994 E32.16101
G1 X85.2 Y160.849 E32.49121
G1 X82.955 Y159.76 E32.82317
G1 X82.243 Y159.438 E32.92713
G1 X81.377 Y159.032 E33.05438
G1 X80.489 Y158.572 E33.18743
G1 X79.641 Y158.042 E33.32047
G1 X78.708 Y157.34 E33.4758
G1 X78.044 Y156.788 E33.59068
G1 X74.446 Y153.714 E34.22028
G1 X73.745 Y153.099 E34.34434
G1 X72.713 Y152.079 E34.53738
G1 X72.26 Y151.569 E34.62814
G1 X68.928 Y147.668 E35.31067
G1 X68.351 Y146.975 E35.43065
G1 X67.481 Y145.793 E35.6259
G1 X67.104 Y145.204 E35.71894
G1 X64.426 Y140.833 E36.40093
G1 X63.978 Y140.081 E36.51738
G1 X63.321 Y138.816 E36.70702
G1 X63.041 Y138.178 E36.79972
G1 X61.001 Y133.252 E37.50905
G1 X60.736 Y132.588 E37.60416
G1 X60.403 Y131.646 E37.73709
G1 X60.264 Y131.162 E37.80408
G1 X60.092 Y130.499 E37.89521
G1 X58.895 Y125.511 E38.57766
G1 X58.705 Y124.675 E38.69171
G1 X58.524 Y123.692 E38.82469
G1 X58.46 Y123.167 E38.89505
G1 X58.388 Y122.421 E38.99476
G1 X57.997 Y117.446 E39.65868
G1 X57.936 Y116.524 E39.78161
G1 X57.925 Y115.1 E39.97107
G1 X57.966 Y114.257 E40.08335
G1 X58.053 Y111.761 E40.41563
G1 X58.068 Y109.259 E40.7485
G1 X58.012 Y106.753 E41.08198
G1 X57.927 Y104.94 E41.32345
G1 X57.936 Y103.603 E41.50133
G1 X58.013 Y102.36 E41.66701
G1 X58.385 Y97.637 E42.29731
G1 X58.452 Y96.921 E42.39298
G1 X58.66 Y95.541 E42.57865
G1 X58.816 Y94.818 E42.67706
G1 X60.059 Y89.643 E43.38512
G1 X60.241 Y88.933 E43.48264
G1 X60.663 Y87.603 E43.66827
G1 X60.907 Y86.975 E43.75791
G1 X62.899 Y82.162 E44.45091
G1 X63.253 Y81.34 E44.56998
G1 X63.685 Y80.439 E44.70291
G1 X63.981 Y79.912 E44.78333
G1 X65.664 Y77.078 E45.22184
G1 X66.879 Y74.892 E45.55457
G1 X68.013 Y72.711 E45.88161
G1 X69.081 Y70.505 E46.20768
G1 X70.11 Y68.216 E46.54156
G1 X71.067 Y65.916 E46.87299
G1 X71.825 Y63.95 E47.15331
G0 F6000 X71.025 Y68.62
G1 F1200 X71.995 Y66.289 E47.48921
G1 X72.783 Y64.246 E47.78053
G1 X73.12 Y63.337 E47.90951
G1 X73.491 Y62.453 E48.03705
G1 X73.934 Y61.602 E48.16469
G1 X74.446 Y60.792 E48.29218
G1 X74.855 Y60.238 E48.38379
G1 X75.228 Y59.77 E48.46341
G1 X75.755 Y59.139 E48.57279
G1 X76.4 Y58.43 E48.70031
G1 X77.102 Y57.776 E48.82795
G1 X77.655 Y57.331 E48.92238
G1 X78.034 Y57.045 E48.98555
G1 X78.533 Y56.687 E49.06726
G1 X79.34 Y56.17 E49.19476
G1 X80.188 Y55.721 E49.32242
G1 X81.07 Y55.345 E49.44998
G1 X82.028 Y55.031 E49.5841
G1 X83.204 Y54.701 E49.7466
G1 X85.683 Y53.968 E50.09053
G1 X87.052 Y53.52 E50.28216
G1 X87.81 Y53.283 E50.38782
G1 X88.737 Y53.035 E50.51549
G1 X89.68 Y52.866 E50.64294
G1 X90.635 Y52.775 E50.77057
G1 X91.14 Y52.759 E50.83779
G1 X91.818 Y52.753 E50.928
G1 X93.093 Y52.813 E51.09781
G1 X94.339 Y52.941 E51.26445
G1 X96.9 Y53.165 E51.60647
G1 X99.423 Y53.315 E51.94272
G1 X101.891 Y53.391 E52.27122
G1 X104.422 Y53.398 E52.60795
G1 X106.911 Y53.334 E52.9392
G1 X109.399 Y53.203 E53.27066
G1 X110.566 Y53.201 E53.42592
G1 X111.255 Y53.239 E53.51772
G1 X116.549 Y53.657 E54.22423
G1 X117.273 Y53.725 E54.32098
G1 X118.561 Y53.92 E54.49429
G1 X119.225 Y54.064 E54.58468
G1 X124.213 Y55.261 E55.26713
G1 X125.101 Y55.488 E55.38906
G1 X126.326 Y55.877 E55.56006
G1 X126.919 Y56.107 E55.64468
G1 X131.9 Y58.17 E56.36194
G1 X132.538 Y58.446 E56.45442
G1 X133.741 Y59.053 E56.63369
G1 X134.39 Y59.433 E56.73375
G1 X138.65 Y62.045 E57.39855
G1 X139.42 Y62.531 E57.51969
G1 X140.466 Y63.277 E57.69062
G1 X140.978 Y63.695 E57.77855
G1 X144.935 Y67.074 E58.47082
G1 X145.582 Y67.641 E58.58527
G1 X146.528 Y68.574 E58.76204
G1 X146.979 Y69.08 E58.85222
G1 X150.416 Y73.105 E59.55637
G1 X150.88 Y73.664 E59.65302
G1 X151.674 Y74.743 E59.83125
G1 X152.042 Y75.317 E59.92196
G1 X154.799 Y79.818 E60.62419
G1 X155.167 Y80.439 E60.72022
G1 X155.759 Y81.577 E60.89088
G1 X156.036 Y82.205 E60.9822
G1 X158.014 Y86.98 E61.66982
G1 X158.333 Y87.777 E61.78403
G1 X158.767 Y89.086 E61.9675
G1 X158.936 Y89.734 E62.05659
G1 X160.133 Y94.722 E62.73904
G1 X160.32 Y95.552 E62.85223
G1 X160.542 Y96.912 E63.03556
G1 X160.615 Y97.657 E63.13515
G1 X161.006 Y102.632 E63.79907
G1 X161.065 Y103.527 E63.9184
G1 X161.076 Y104.84 E64.09309
G1 X161.037 Y105.645 E64.20031
G1 X160.947 Y108.233 E64.54483
G1 X160.932 Y110.758 E64.88076
G1 X160.988 Y113.274 E65.21557
G1 X161.074 Y115.105 E65.45944
G1 X161.066 Y116.333 E65.62282
G1 X160.991 Y117.564 E65.78689
G1 X160.634 Y122.108 E66.39329
G1 X160.554 Y122.981 E66.50992
G1 X160.362 Y124.26 E66.68199
G1 X160.229 Y124.875 E66.7657
G1 X159.022 Y129.906 E67.45402
G1 X158.796 Y130.796 E67.57618
G1 X158.403 Y132.04 E67.74975
G1 X158.157 Y132.672 E67.83998
G1 X156.111 Y137.612 E68.55133
G1 X155.835 Y138.252 E68.64406
G1 X155.211 Y139.488 E68.82827
G1 X154.843 Y140.114 E68.92487
G1 X152.231 Y144.374 E69.58968
G1 X151.745 Y145.144 E69.71082
G1 X150.999 Y146.19 E69.88175
G1 X150.581 Y146.702 E69.96968
G1 X147.202 Y150.659 E70.66194
G1 X146.639 Y151.302 E70.77565
G1 X145.708 Y152.247 E70.95213
G1 X145.196 Y152.703 E71.04335
G1 X141.171 Y156.14 E71.74751
G1 X140.612 Y156.604 E71.84416
G1 X139.533 Y157.398 E72.02239
G1 X138.958 Y157.767 E72.11328
G1 X134.455 Y160.525 E72.8158
G1 X133.851 Y160.884 E72.90928
G1 X132.687 Y161.488 E73.08375
G1 X132.071 Y161.76 E73.17333
G1 X127.296 Y163.738 E73.86095
G1 X126.499 Y164.057 E73.97516
G1 X125.19 Y164.491 E74.15863
G1 X124.542 Y164.659 E74.24769
G1 X119.409 Y165.89 E74.94995
G1 X118.725 Y166.044 E75.04323
G1 X117.44 Y166.258 E75.21654
G1 X116.801 Y166.322 E75.30198
G1 X111.483 Y166.741 E76.01168
G1 X110.739 Y166.789 E76.11087
G1 X109.444 Y166.8 E76.28317
G1 X108.745 Y166.761 E76.37631
G1 X103.624 Y166.358 E77.05971
G1 X102.739 Y166.276 E77.17796
G1 X101.468 Y166.085 E77.34895
G1 X100.775 Y165.936 E77.44325
G1 X95.787 Y164.739 E78.1257
G1 X94.899 Y164.512 E78.24764
G1 X93.681 Y164.126 E78.41763
G1 X92.963 Y163.842 E78.52035
G1 X92.446 Y163.619 E78.59526
G1 X91.239 Y163.011 E78.77506
G1 X90.114 Y162.36 E78.94798
G1 X87.861 Y161.105 E79.29109
G1 X85.651 Y159.955 E79.62253
G1 X83.396 Y158.862 E79.95592
G1 X82.829 Y158.607 E80.03864
G1 X81.801 Y158.126 E80.18963
G1 X80.951 Y157.684 E80.31709
G1 X80.14 Y157.171 E80.44476
G1 X79.346 Y156.569 E80.57733
G1 X78.694 Y156.027 E80.69013
G1 X74.971 Y152.845 E81.3417
G1 X74.406 Y152.348 E81.44181
G1 X73.456 Y151.41 E81.61942
G1 X73.021 Y150.92 E81.70659
G1 X69.586 Y146.897 E82.41037
G1 X69.121 Y146.337 E82.50721
G1 X68.32 Y145.249 E82.68696
G1 X67.957 Y144.682 E82.77653
G1 X65.279 Y140.311 E83.45851
G1 X64.838 Y139.57 E83.57323
G1 X64.233 Y138.406 E83.74776
G1 X63.964 Y137.795 E83.83658
G1 X61.986 Y133.02 E84.52419
G1 X61.665 Y132.218 E84.63912
G1 X61.231 Y130.905 E84.8231
G1 X61.064 Y130.266 E84.91097
G1 X59.867 Y125.278 E85.59341
G1 X59.681 Y124.455 E85.70567
G1 X59.455 Y123.068 E85.89263
G1 X59.385 Y122.343 E85.98953
G1 X58.994 Y117.368 E86.65345
G1 X58.934 Y116.459 E86.77465
G1 X58.924 Y115.149 E86.94893
G1 X58.964 Y114.339 E87.05683
G1 X59.053 Y111.767 E87.39921
G1 X59.068 Y109.243 E87.73501
G1 X59.012 Y106.724 E88.07023
G1 X58.926 Y104.893 E88.31409
G1 X58.934 Y103.663 E88.47774
G1 X59.009 Y102.438 E88.64101
G1 X59.366 Y97.9 E89.24662
G1 X59.448 Y97.015 E89.36486
G1 X59.639 Y95.744 E89.53586
G1 X59.788 Y95.051 E89.63016
G1 X60.985 Y90.063 E90.31261
G1 X61.21 Y89.181 E90.43371
G1 X61.598 Y87.957 E90.60453
G1 X61.831 Y87.357 E90.69017
G1 X63.823 Y82.544 E91.38317
G1 X64.171 Y81.736 E91.50021
G1 X64.587 Y80.873 E91.62767
G1 X64.841 Y80.423 E91.69641
G1 X66.526 Y77.586 E92.1354
G1 X67.753 Y75.378 E92.47147
G1 X68.913 Y73.146 E92.80612
G1 X69.985 Y70.932 E93.13338
G1 X71.025 Y68.62 E93.47066
G0 F6000 X69.806 Y73.596
G1 F1200 X70.896 Y71.345 E93.8034
G1 X71.939 Y69.025 E94.14181
G1 X72.928 Y66.648 E94.48433
G1 X73.73 Y64.568 E94.78091
G1 X74.058 Y63.685 E94.90623
G1 X74.413 Y62.841 E95.02804
G1 X74.842 Y62.03 E95.1501
G1 X75.339 Y61.261 E95.27192
G1 X75.641 Y60.855 E95.33924
G1 X75.996 Y60.411 E95.41487
G1 X76.523 Y59.78 E95.52424
G1 X77.141 Y59.103 E95.6462
G1 X77.815 Y58.483 E95.76803
G1 X78.257 Y58.13 E95.84329
G1 X78.636 Y57.844 E95.90646
G1 X79.107 Y57.506 E95.98358
G1 X79.88 Y57.013 E96.10556
G1 X80.692 Y56.589 E96.22743
G1 X81.538 Y56.238 E96.34928
G1 X82.298 Y55.993 E96.45552
G1 X83.53 Y55.647 E96.62577
G1 X85.972 Y54.925 E96.96455
G1 X87.351 Y54.474 E97.15758
G1 X88.109 Y54.237 E97.26324
G1 X88.994 Y54.002 E97.38506
G1 X89.897 Y53.845 E97.507
G1 X91.149 Y53.759 E97.67396
G1 X91.827 Y53.753 E97.76416
G1 X92.991 Y53.808 E97.91919
G1 X94.216 Y53.934 E98.08303
G1 X96.826 Y54.162 E98.43159
G1 X99.369 Y54.313 E98.7705
G1 X101.892 Y54.391 E99.10633
G1 X104.409 Y54.398 E99.44119
G1 X106.989 Y54.332 E99.78455
G1 X109.452 Y54.202 E100.11268
G1 X110.517 Y54.2 E100.25437
G1 X111.177 Y54.236 E100.34231
G1 X116.298 Y54.639 E101.02571
G1 X117.18 Y54.721 E101.14356
G1 X118.355 Y54.899 E101.30167
G1 X118.991 Y55.037 E101.38825
G1 X123.979 Y56.234 E102.0707
G1 X124.852 Y56.457 E102.19057
G1 X125.971 Y56.812 E102.34676
G1 X126.536 Y57.031 E102.42737
G1 X131.503 Y59.088 E103.14261
G1 X132.141 Y59.364 E103.23509
G1 X133.239 Y59.918 E103.39871
G1 X133.867 Y60.286 E103.49555
G1 X138.252 Y62.975 E104.17989
G1 X138.886 Y63.376 E104.27969
G1 X139.841 Y64.058 E104.43582
G1 X140.329 Y64.455 E104.51951
G1 X144.286 Y67.834 E105.21178
G1 X144.922 Y68.392 E105.32434
G1 X145.786 Y69.244 E105.48577
G1 X146.219 Y69.73 E105.57237
G1 X149.551 Y73.631 E106.25491
G1 X150.11 Y74.303 E106.3712
G1 X150.835 Y75.288 E106.53392
G1 X151.189 Y75.839 E106.62105
G1 X153.939 Y80.328 E107.32142
G1 X154.307 Y80.949 E107.41746
G1 X154.847 Y81.988 E107.57324
G1 X155.112 Y82.588 E107.6605
G1 X157.14 Y87.486 E108.36578
G1 X157.404 Y88.147 E108.46048
G1 X157.8 Y89.343 E108.62809
G1 X157.963 Y89.968 E108.71402
G1 X159.194 Y95.101 E109.41628
G1 X159.345 Y95.772 E109.50779
G1 X159.547 Y97.013 E109.67506
G1 X159.618 Y97.735 E109.77158
G1 X160.009 Y102.71 E110.4355
G1 X160.067 Y103.593 E110.55323
G1 X160.078 Y104.791 E110.71262
G1 X160.037 Y105.63 E110.82437
G1 X159.947 Y108.228 E111.17022
G1 X159.932 Y110.774 E111.50894
G1 X159.988 Y113.303 E111.84548
G1 X160.075 Y115.152 E112.09175
G1 X160.068 Y116.273 E112.24089
G1 X159.994 Y117.485 E112.40244
G1 X159.637 Y122.029 E113.00883
G1 X159.558 Y122.889 E113.12373
G1 X159.383 Y124.057 E113.28086
G1 X159.256 Y124.642 E113.3605
G1 X158.014 Y129.815 E114.06828
G1 X157.827 Y130.549 E114.16905
G1 X157.468 Y131.685 E114.32755
G1 X157.233 Y132.289 E114.41377
G1 X155.193 Y137.216 E115.12323
G1 X154.917 Y137.856 E115.21595
G1 X154.347 Y138.984 E115.3841
G1 X153.99 Y139.591 E115.47778
G1 X151.301 Y143.976 E116.16212
G1 X150.9 Y144.61 E116.26192
G1 X150.218 Y145.565 E116.41805
G1 X149.821 Y146.053 E116.50174
G1 X146.442 Y150.01 E117.19401
G1 X145.888 Y150.642 E117.30582
G1 X145.037 Y151.505 E117.46707
G1 X144.546 Y151.943 E117.5546
G1 X140.645 Y155.275 E118.23714
G1 X139.973 Y155.834 E118.35343
G1 X138.988 Y156.559 E118.51615
G1 X138.435 Y156.914 E118.60358
G1 X133.944 Y159.665 E119.30425
G1 X133.34 Y160.024 E119.39773
G1 X132.277 Y160.576 E119.55708
G1 X131.688 Y160.836 E119.64274
G1 X126.79 Y162.864 E120.34802
G1 X126.129 Y163.128 E120.44271
G1 X124.933 Y163.524 E120.61032
