;FLAVOR:Marlin
;TIME:1030
;Filament used: 3.39511m
;Layer height: 0.32
;MINX:61.431
;MINY:84.372
;MINZ:0.32
;MAXX:150.998
;MAXY:139.872
;MAXZ:20.16
;Generated with Cura_SteamEngine main
M140 S60
M105
M190 S60
M104 S210
M105
M109 S210
M82 ;absolute extrusion mode
M201 X500.00 Y500.00 Z100.00 E5000.00 ;Setup machine max acceleration
M203 X500.00 Y500.00 Z10.00 E50.00 ;Setup machine max feedrate
M204 P500.00 R1000.00 T500.00 ;Setup Print/Retract/Travel acceleration
M205 X8.00 Y8.00 Z0.40 E5.00 ;Setup Jerk
M220 S100 ;Reset Feedrate
M221 S100 ;Reset Flowrate

G28 ;Home

G92 E0 ;Reset Extruder
G1 Z2.0 F3000 ;Move Z Axis up
G1 X10.1 Y20 Z0.28 F5000.0 ;Move to start position
G1 X10.1 Y200.0 Z0.28 F1500.0 E15 ;Draw the first line
G1 X10.4 Y200.0 Z0.28 F5000.0 ;Move to side a little
G1 X10.4 Y20 Z0.28 F1500.0 E30 ;Draw the second line
G92 E0 ;Reset Extruder
G1 Z2.0 F3000 ;Move Z Axis up

G92 E0
G92 E0
G1 F2700 E-5
;LAYER_COUNT:63
;LAYER:0
M107
G0 F6000 X66.601 Y88.612 Z0.32
G0 X61.431 Y98.935
;TYPE:SKIRT
G1 F2700 E0
G1 F1200 X61.455 Y97.936 E0.13295
G1 X61.559 Y96.941 E0.26604
G1 X61.742 Y95.958 E0.39907
G1 X62.003 Y94.993 E0.53207
G1 X62.341 Y94.052 E0.66509
G1 X62.753 Y93.141 E0.79811
G1 X63.236 Y92.266 E0.93107
G1 X63.787 Y91.432 E1.06406
G1 X64.404 Y90.645 E1.1971
G1 X65.081 Y89.909 E1.33014
G1 X65.815 Y89.23 E1.46317
G1 X66.601 Y88.612 E1.59619
G1 X67.434 Y88.059 E1.72921
G1 X68.308 Y87.574 E1.8622
G1 X69.25 Y87.148 E1.99974
G1 X69.893 Y86.895 E2.09167
G1 X72.886 Y85.798 E2.51576
G1 X73.54 Y85.569 E2.60795
G1 X74.496 Y85.277 E2.74094
G1 X75.472 Y85.062 E2.8739
G1 X76.463 Y84.926 E3.00698
G1 X77.461 Y84.869 E3.13997
G1 X78.461 Y84.892 E3.27304
G1 X79.455 Y84.995 E3.40599
G1 X80.438 Y85.177 E3.539
G1 X81.173 Y85.368 E3.64003
G1 X81.91 Y85.583 E3.74217
G1 X84.406 Y86.276 E4.0868
G1 X86.792 Y86.866 E4.41379
G1 X89.25 Y87.4 E4.74843
G1 X91.644 Y87.85 E5.07251
G1 X94.099 Y88.241 E5.40324
G1 X96.566 Y88.561 E5.7342
G1 X99.001 Y88.807 E6.0598
G1 X101.485 Y88.989 E6.39116
G1 X103.979 Y89.099 E6.72329
G1 X106.422 Y89.139 E7.04835
G1 X108.899 Y89.108 E7.37792
G1 X111.373 Y89.008 E7.70733
G1 X113.871 Y88.837 E8.04044
G1 X116.295 Y88.601 E8.36446
G1 X118.759 Y88.29 E8.69487
G1 X121.246 Y87.905 E9.02968
G1 X123.624 Y87.468 E9.35135
G1 X126.068 Y86.947 E9.68381
G1 X128.46 Y86.366 E10.01129
G1 X130.859 Y85.71 E10.34218
G1 X133.492 Y84.909 E10.70832
G1 X134.46 Y84.656 E10.84143
G1 X135.444 Y84.482 E10.97437
G1 X136.439 Y84.387 E11.10735
G1 X137.439 Y84.372 E11.24041
G1 X138.437 Y84.437 E11.37346
G1 X139.426 Y84.581 E11.50643
G1 X140.401 Y84.804 E11.63949
G1 X141.354 Y85.104 E11.77241
G1 X142.281 Y85.479 E11.90545
G1 X143.175 Y85.927 E12.03849
G1 X144.03 Y86.446 E12.17155
G1 X144.841 Y87.03 E12.30451
G1 X145.602 Y87.678 E12.43749
G1 X146.31 Y88.385 E12.5706
G1 X146.958 Y89.146 E12.70358
G1 X147.544 Y89.956 E12.83658
G1 X148.063 Y90.81 E12.96954
G1 X148.512 Y91.704 E13.10263
G1 X148.738 Y92.232 E13.17904
G1 X148.982 Y92.859 E13.26855
G1 X150.063 Y95.809 E13.68654
G1 X150.292 Y96.46 E13.77836
G1 X150.586 Y97.416 E13.91142
G1 X150.802 Y98.392 E14.04441
G1 X150.94 Y99.382 E14.17739
G1 X150.998 Y100.38 E14.31039
G1 X150.976 Y101.38 E14.44346
G1 X150.875 Y102.374 E14.57639
G1 X150.694 Y103.358 E14.7095
G1 X150.435 Y104.323 E14.84242
G1 X150.1 Y105.265 E14.97544
G1 X149.691 Y106.178 E15.10853
G1 X149.21 Y107.054 E15.24149
G1 X148.66 Y107.889 E15.37451
G1 X148.219 Y108.469 E15.47145
G1 X147.813 Y108.971 E15.55734
G1 X146.782 Y110.21 E15.77179
G1 X145.242 Y112.167 E16.10309
G1 X143.789 Y114.125 E16.42748
G1 X142.343 Y116.197 E16.76363
G1 X140.993 Y118.251 E17.09063
G1 X139.69 Y120.361 E17.42056
G1 X138.463 Y122.48 E17.74632
G1 X137.267 Y124.687 E18.08029
G1 X136.161 Y126.875 E18.40645
G1 X135.111 Y129.104 E18.73426
G1 X134.767 Y129.895 E18.84901
G1 X134.218 Y131.116 E19.02712
G1 X133.771 Y132.01 E19.1601
G1 X133.004 Y133.231 E19.35193
G1 X132.235 Y134.305 E19.52767
G1 X131.807 Y134.876 E19.6226
G1 X131.176 Y135.652 E19.75567
G1 X130.485 Y136.374 E19.88863
G1 X129.738 Y137.039 E20.02168
G1 X128.941 Y137.642 E20.15464
G1 X128.098 Y138.18 E20.28769
G1 X127.214 Y138.648 E20.42076
G1 X126.296 Y139.044 E20.55377
G1 X125.35 Y139.366 E20.68672
G1 X124.381 Y139.611 E20.81969
G1 X123.395 Y139.778 E20.95274
G1 X122.399 Y139.865 E21.08575
G1 X121.399 Y139.872 E21.2188
G1 X120.402 Y139.8 E21.35178
G1 X119.414 Y139.648 E21.48477
G1 X118.441 Y139.418 E21.61779
G1 X117.579 Y139.143 E21.73817
G1 X116.676 Y138.819 E21.8658
G1 X114.263 Y137.99 E22.20524
G1 X111.943 Y137.265 E22.52862
G1 X109.507 Y136.581 E22.86524
G1 X107.134 Y135.985 E23.19075
G1 X104.69 Y135.445 E23.52374
G1 X102.296 Y134.986 E23.84804
G1 X99.839 Y134.587 E24.1792
G1 X97.374 Y134.258 E24.51006
G1 X94.921 Y134 E24.83821
G1 X92.465 Y133.813 E25.1659
G1 X89.98 Y133.693 E25.49689
G1 X87.511 Y133.645 E25.82543
G1 X85.031 Y133.667 E26.15538
G1 X83.306 Y133.732 E26.38504
G1 X82.517 Y133.753 E26.49005
G1 X81.517 Y133.739 E26.6231
G1 X80.521 Y133.646 E26.75619
G1 X79.537 Y133.473 E26.88911
G1 X78.569 Y133.223 E27.02211
G1 X77.624 Y132.896 E27.15515
G1 X76.708 Y132.494 E27.28824
G1 X75.828 Y132.02 E27.42122
G1 X74.988 Y131.478 E27.55421
G1 X74.194 Y130.87 E27.68726
G1 X73.451 Y130.201 E27.82028
G1 X72.765 Y129.474 E27.95326
G1 X72.138 Y128.695 E28.0863
G1 X71.576 Y127.869 E28.21921
G1 X71.081 Y127 E28.35226
G1 X70.564 Y125.864 E28.51831
G1 X70.337 Y125.281 E28.60155
G1 X62.402 Y103.642 E31.66787
G1 X62.127 Y102.857 E31.77853
G1 X61.835 Y101.901 E31.91151
G1 X61.621 Y100.924 E32.04458
G1 X61.486 Y99.933 E32.17764
G1 X61.431 Y98.935 E32.31061
G0 F6000 X62.429 Y98.763
G1 F1200 X62.467 Y97.804 E32.4383
G1 X62.585 Y96.853 E32.56579
G1 X62.781 Y95.914 E32.69341
G1 X63.055 Y94.995 E32.82099
G1 X63.405 Y94.102 E32.9486
G1 X63.828 Y93.242 E33.0761
G1 X64.321 Y92.419 E33.20374
G1 X64.881 Y91.641 E33.33127
G1 X65.504 Y90.912 E33.45885
G1 X66.185 Y90.237 E33.58641
G1 X66.921 Y89.621 E33.7141
G1 X67.705 Y89.069 E33.84166
G1 X68.532 Y88.584 E33.96921
G1 X69.624 Y88.075 E34.1295
G1 X70.238 Y87.834 E34.21725
G1 X73.216 Y86.742 E34.63924
G1 X73.87 Y86.513 E34.73143
G1 X74.788 Y86.234 E34.85908
G1 X75.726 Y86.033 E34.9867
G1 X76.677 Y85.91 E35.11428
G1 X77.635 Y85.867 E35.24186
G1 X78.593 Y85.904 E35.36941
G1 X79.545 Y86.021 E35.49702
G1 X80.893 Y86.328 E35.68095
G1 X81.607 Y86.536 E35.77989
G1 X84.165 Y87.247 E36.13311
G1 X86.557 Y87.838 E36.46091
G1 X89.036 Y88.377 E36.79842
G1 X91.512 Y88.842 E37.13359
G1 X93.955 Y89.231 E37.4627
G1 X96.442 Y89.554 E37.79635
G1 X98.934 Y89.806 E38.12958
G1 X101.402 Y89.986 E38.4588
G1 X103.955 Y90.099 E38.79878
G1 X106.419 Y90.139 E39.12664
G1 X108.916 Y90.108 E39.45886
G1 X111.445 Y90.006 E39.7956
G1 X113.933 Y89.835 E40.12738
G1 X116.411 Y89.594 E40.45861
G1 X118.931 Y89.276 E40.79653
G1 X121.363 Y88.899 E41.12395
G1 X123.837 Y88.445 E41.45859
G1 X126.269 Y87.927 E41.7894
G1 X128.75 Y87.324 E42.12909
G1 X131.097 Y86.682 E42.4528
G1 X133.783 Y85.865 E42.82632
G1 X134.711 Y85.625 E42.95384
G1 X135.657 Y85.463 E43.08153
G1 X136.612 Y85.38 E43.20906
G1 X137.571 Y85.376 E43.33665
G1 X138.527 Y85.453 E43.46425
G1 X139.473 Y85.609 E43.5918
G1 X140.403 Y85.844 E43.71942
G1 X141.31 Y86.155 E43.84698
G1 X142.188 Y86.54 E43.97453
G1 X143.031 Y86.998 E44.10217
G1 X143.833 Y87.524 E44.22977
G1 X144.588 Y88.115 E44.35733
G1 X145.291 Y88.767 E44.48489
G1 X145.938 Y89.475 E44.61249
G1 X146.523 Y90.235 E44.74008
G1 X147.043 Y91.04 E44.86758
G1 X147.494 Y91.887 E44.99524
G1 X147.809 Y92.603 E45.09931
G1 X148.043 Y93.203 E45.18499
G1 X149.119 Y96.141 E45.60125
G1 X149.348 Y96.792 E45.69307
G1 X149.629 Y97.709 E45.82066
G1 X149.831 Y98.646 E45.94819
G1 X149.955 Y99.597 E46.07578
G1 X150 Y100.555 E46.20337
G1 X149.964 Y101.513 E46.33092
G1 X149.849 Y102.465 E46.45849
G1 X149.655 Y103.404 E46.58605
G1 X149.383 Y104.324 E46.71369
G1 X149.036 Y105.218 E46.84127
G1 X148.615 Y106.08 E46.9689
G1 X148.124 Y106.903 E47.0964
G1 X147.442 Y107.84 E47.25058
G1 X147.036 Y108.342 E47.33648
G1 X146.001 Y109.585 E47.55167
G1 X144.444 Y111.564 E47.88667
G1 X142.97 Y113.551 E48.21582
G1 X141.519 Y115.63 E48.55311
G1 X140.154 Y117.707 E48.88377
G1 X138.837 Y119.839 E49.21717
G1 X137.576 Y122.018 E49.55211
G1 X136.396 Y124.193 E49.88131
G1 X135.251 Y126.459 E50.21908
G1 X134.208 Y128.674 E50.5448
G1 X133.85 Y129.497 E50.66421
G1 X133.306 Y130.705 E50.84046
G1 X132.876 Y131.562 E50.96803
G1 X132.19 Y132.651 E51.13926
G1 X131.602 Y133.477 E51.27415
G1 X131.007 Y134.276 E51.40669
G1 X130.4 Y135.019 E51.53433
G1 X129.734 Y135.709 E51.66191
G1 X129.012 Y136.34 E51.78948
G1 X128.241 Y136.91 E51.91704
G1 X127.424 Y137.413 E52.04469
G1 X126.569 Y137.846 E52.17219
G1 X125.68 Y138.206 E52.29979
G1 X124.765 Y138.492 E52.42733
G1 X123.828 Y138.7 E52.55503
G1 X122.878 Y138.829 E52.68258
G1 X121.921 Y138.878 E52.81006
G1 X120.962 Y138.848 E52.93771
G1 X120.009 Y138.738 E53.06534
G1 X119.069 Y138.549 E53.1929
G1 X117.917 Y138.202 E53.35297
G1 X116.98 Y137.865 E53.48544
G1 X114.602 Y137.049 E53.81992
G1 X112.205 Y136.3 E54.15402
G1 X109.802 Y135.625 E54.48609
G1 X107.308 Y134.999 E54.82819
G1 X104.918 Y134.471 E55.15382
G1 X102.469 Y134.001 E55.48559
G1 X99.95 Y133.592 E55.8251
G1 X97.504 Y133.265 E56.15342
G1 X95.033 Y133.006 E56.48396
G1 X92.518 Y132.814 E56.81953
G1 X90.012 Y132.694 E57.15331
G1 X87.521 Y132.645 E57.48478
G1 X85.018 Y132.667 E57.81779
G1 X83.413 Y132.728 E58.03148
G1 X82.49 Y132.753 E58.15432
G1 X81.531 Y132.738 E58.28192
G1 X80.577 Y132.644 E58.40946
G1 X79.634 Y132.471 E58.53701
G1 X78.708 Y132.219 E58.66468
G1 X77.807 Y131.891 E58.79225
G1 X76.936 Y131.49 E58.91982
G1 X76.102 Y131.017 E59.04738
G1 X75.31 Y130.476 E59.17498
G1 X74.566 Y129.872 E59.30247
G1 X73.874 Y129.207 E59.43016
G1 X73.241 Y128.487 E59.5577
G1 X72.67 Y127.717 E59.68524
G1 X72.165 Y126.902 E59.81279
G1 X71.729 Y126.047 E59.94048
G1 X71.493 Y125.495 E60.02035
G1 X71.276 Y124.936 E60.10012
G1 X63.28 Y103.127 E63.19047
G1 X63.071 Y102.528 E63.27487
G1 X62.793 Y101.61 E63.40248
G1 X62.593 Y100.672 E63.53008
G1 X62.471 Y99.721 E63.65764
G1 X62.429 Y98.763 E63.78521
G0 F6000 X63.43 Y98.598
G1 F1200 X63.482 Y97.683 E63.90714
G1 X63.614 Y96.776 E64.02908
G1 X63.825 Y95.884 E64.15103
G1 X64.112 Y95.014 E64.27291
G1 X64.474 Y94.172 E64.39484
G1 X64.908 Y93.366 E64.51663
G1 X65.411 Y92.6 E64.63855
G1 X65.979 Y91.88 E64.76056
G1 X66.607 Y91.213 E64.88244
G1 X67.291 Y90.604 E65.00428
G1 X68.025 Y90.056 E65.12614
G1 X68.805 Y89.574 E65.24813
G1 X69.998 Y89.002 E65.42415
G1 X70.582 Y88.773 E65.5076
G1 X73.547 Y87.686 E65.92774
G1 X74.201 Y87.457 E66.01993
G1 X75.078 Y87.192 E66.14182
G1 X75.975 Y87.005 E66.26372
G1 X76.885 Y86.896 E66.38565
G1 X77.801 Y86.868 E66.50757
G1 X78.716 Y86.919 E66.62949
G1 X79.623 Y87.05 E66.75141
G1 X80.613 Y87.288 E66.88688
G1 X81.374 Y87.51 E66.99234
G1 X83.9 Y88.212 E67.34114
G1 X86.355 Y88.818 E67.67756
G1 X88.814 Y89.353 E68.01236
G1 X91.311 Y89.822 E68.35037
G1 X93.81 Y90.22 E68.68703
G1 X96.319 Y90.545 E69.02361
G1 X98.867 Y90.803 E69.36433
G1 X101.356 Y90.985 E69.69636
G1 X103.893 Y91.097 E70.03421
G1 X106.45 Y91.139 E70.37444
G1 X108.969 Y91.108 E70.70959
G1 X111.483 Y91.006 E71.04433
G1 X113.989 Y90.834 E71.37852
G1 X116.564 Y90.583 E71.72272
G1 X119.033 Y90.272 E72.05379
G1 X121.555 Y89.881 E72.39333
G1 X124.016 Y89.429 E72.72622
G1 X126.497 Y88.901 E73.06368
G1 X128.966 Y88.301 E73.40172
G1 X131.41 Y87.632 E73.73883
G1 X134.074 Y86.822 E74.10927
G1 X134.962 Y86.594 E74.23125
G1 X135.865 Y86.444 E74.35303
G1 X136.779 Y86.374 E74.47498
G1 X137.695 Y86.383 E74.59685
G1 X138.607 Y86.473 E74.71878
G1 X139.508 Y86.641 E74.84071
G1 X140.391 Y86.887 E74.96266
G1 X141.248 Y87.21 E75.08451
G1 X142.075 Y87.606 E75.20649
G1 X142.863 Y88.072 E75.32829
G1 X143.608 Y88.606 E75.45024
G1 X144.304 Y89.202 E75.57214
G1 X144.945 Y89.857 E75.69407
G1 X145.527 Y90.565 E75.816
G1 X146.044 Y91.321 E75.93785
G1 X146.494 Y92.119 E76.05973
G1 X146.88 Y92.974 E76.18454
G1 X147.104 Y93.547 E76.26639
G1 X148.176 Y96.473 E76.68097
G1 X148.405 Y97.124 E76.77278
G1 X148.671 Y98.001 E76.89471
G1 X148.86 Y98.897 E77.01653
G1 X148.969 Y99.807 E77.13847
G1 X148.999 Y100.723 E77.2604
G1 X148.949 Y101.638 E77.38231
G1 X148.82 Y102.545 E77.50419
G1 X148.612 Y103.437 E77.62605
G1 X148.327 Y104.308 E77.74797
G1 X147.967 Y105.151 E77.86992
G1 X147.534 Y105.959 E77.99188
G1 X147.034 Y106.726 E78.11369
G1 X146.664 Y107.211 E78.19485
G1 X146.258 Y107.713 E78.28074
G1 X145.238 Y108.939 E78.49292
G1 X143.647 Y110.961 E78.83522
G1 X142.163 Y112.96 E79.16644
G1 X140.701 Y115.055 E79.50632
G1 X139.306 Y117.178 E79.84428
G1 X137.963 Y119.352 E80.18425
G1 X136.71 Y121.517 E80.51705
G1 X135.504 Y123.74 E80.85351
G1 X134.369 Y125.986 E81.18831
G1 X133.288 Y128.282 E81.52593
G1 X132.877 Y129.225 E81.66279
G1 X132.395 Y130.295 E81.81892
G1 X131.982 Y131.113 E81.94083
G1 X131.375 Y132.071 E82.09171
G1 X130.635 Y133.106 E82.26098
G1 X130.207 Y133.677 E82.35592
G1 X129.626 Y134.385 E82.47777
G1 X128.985 Y135.04 E82.5997
G1 X128.29 Y135.637 E82.72159
G1 X127.545 Y136.171 E82.84354
G1 X126.757 Y136.638 E82.9654
G1 X125.931 Y137.034 E83.08727
G1 X125.073 Y137.357 E83.20924
G1 X124.191 Y137.604 E83.33109
G1 X123.29 Y137.773 E83.45305
G1 X122.378 Y137.863 E83.57498
G1 X121.462 Y137.873 E83.69685
G1 X120.549 Y137.804 E83.81866
G1 X119.644 Y137.654 E83.9407
G1 X118.757 Y137.427 E84.06251
G1 X118.255 Y137.261 E84.13286
G1 X117.347 Y136.935 E84.26121
G1 X114.877 Y136.087 E84.60865
G1 X112.489 Y135.341 E84.94149
G1 X110.066 Y134.66 E85.27634
G1 X107.559 Y134.031 E85.62021
G1 X105.106 Y133.489 E85.95443
G1 X102.614 Y133.011 E86.29201
G1 X100.132 Y132.608 E86.62654
G1 X97.639 Y132.274 E86.96117
G1 X95.107 Y132.009 E87.29987
G1 X92.571 Y131.816 E87.63824
G1 X90.045 Y131.694 E87.97469
G1 X87.533 Y131.645 E88.30895
G1 X84.972 Y131.667 E88.64968
G1 X83.252 Y131.732 E88.87867
G1 X82.463 Y131.753 E88.98368
G1 X81.547 Y131.738 E89.10556
G1 X80.636 Y131.642 E89.22743
G1 X79.736 Y131.468 E89.34938
G1 X78.855 Y131.215 E89.47133
G1 X78 Y130.887 E89.59316
G1 X77.176 Y130.486 E89.71508
G1 X76.391 Y130.014 E89.83694
G1 X75.649 Y129.476 E89.95888
G1 X74.958 Y128.875 E90.08071
G1 X74.321 Y128.216 E90.20265
G1 X73.744 Y127.504 E90.32458
G1 X73.232 Y126.744 E90.44649
G1 X72.788 Y125.943 E90.56833
G1 X72.423 Y125.127 E90.68726
G1 X72.215 Y124.592 E90.76363
G1 X64.224 Y102.797 E93.852
G1 X64.015 Y102.198 E93.9364
G1 X63.751 Y101.321 E94.05825
G1 X63.565 Y100.423 E94.18025
G1 X63.458 Y99.513 E94.30215
G1 X63.43 Y98.598 E94.42394
G1 F2700 E89.42394
G0 F6000 X81.79 Y122.105
G0 X120.198 Y121.488
G1 F2700 E94.42394
G1 F1200 X120.214 Y121.498 E94.42645
G1 X120.224 Y121.526 E94.43041
G1 X120.198 Y121.488 E94.43654
G0 F6000 X120.539 Y122.439
G1 F1200 X120.65 Y122.761 E94.48185
G1 X120.638 Y124.117 E94.66226
G1 X120.681 Y124.513 E94.71525
G1 X121.02 Y125.429 E94.84519
G1 X120.969 Y125.407 E94.85258
G1 X120.572 Y124.323 E95.00617
G1 X120.539 Y122.439 E95.25685
G0 F6000 X117.428 Y120.424
G1 F1200 X116.832 Y118.287 E95.55201
G1 X116.546 Y116.782 E95.75582
G1 X117.243 Y115.822 E95.91365
G1 X118.287 Y116.162 E96.05973
G1 X118.555 Y117.753 E96.27438
G1 X118.919 Y119.325 E96.48905
G1 X119.001 Y119.506 E96.51549
G1 X119.139 Y119.635 E96.54062
G1 X121.044 Y120.84 E96.84051
G1 X121.651 Y122.599 E97.08807
G1 X121.638 Y124.126 E97.29123
G1 X121.669 Y124.304 E97.31527
G1 X122.266 Y125.913 E97.54359
G1 X121.638 Y126.776 E97.68558
G1 X120.18 Y126.159 E97.89621
G1 X119.575 Y124.509 E98.13002
G1 X119.538 Y122.423 E98.40758
G1 X119.495 Y122.229 E98.43402
G1 X119.36 Y122.049 E98.46396
G1 X117.428 Y120.424 E98.79982
G1 F2700 E93.79982
;MESH:bolec.stl
G0 F6000 X113.752 Y110.397
G0 X83.07 Y119.341
;TYPE:WALL-INNER
G1 F2700 E98.79982
G1 F1200 X136.586 Y99.719 E106.38311
G1 X136.414 Y99.25 E106.44957
G1 X136.242 Y98.781 E106.51603
G1 X90.707 Y115.477 E112.96842
G1 X90.105 Y115.566 E113.04938
G1 X89.559 Y115.43 E113.12424
G1 X81.86 Y111.863 E114.25311
G1 F1195.2 X81.399 Y111.537 E114.32853
G1 F1185.8 X81.185 Y111.258 E114.37587
G1 F1190.5 X81.082 Y111.017 E114.41102
G1 F1200 X78.931 Y105.149 E115.2425
